; generated by PrusaSlicer 2.3.0+win64 on 2021-03-06 at 11:37:53 UTC

; 

; external perimeters extrusion width = 0.45mm
; perimeters extrusion width = 0.45mm
; infill extrusion width = 0.45mm
; solid infill extrusion width = 0.45mm
; top infill extrusion width = 0.40mm
; first layer extrusion width = 0.42mm

M73 P0 R88
M73 Q0 S89
M201 X1000 Y1000 Z200 E5000 ; sets maximum accelerations, mm/sec^2
M203 X200 Y200 Z12 E120 ; sets maximum feedrates, mm/sec
M204 P1250 R1250 T1250 ; sets acceleration (P, T) and retract acceleration (R), mm/sec^2
M205 X8.00 Y8.00 Z0.40 E4.50 ; sets the jerk limits, mm/sec
M205 S0 T0 ; sets the minimum extruding and travel feed rate, mm/sec
M107
;TYPE:Custom
M862.3 P "MK3S" ; printer model check
M862.1 P0.4 ; nozzle diameter check
M115 U3.9.2 ; tell printer latest fw version
G90 ; use absolute coordinates
M83 ; extruder relative mode
M104 S230 ; set extruder temp
M140 S85 ; set bed temp
M190 S85 ; wait for bed temp
M109 S230 ; wait for extruder temp
G28 W ; home all without mesh bed level
G80 ; mesh bed leveling
G1 Y-3.0 F1000.0 ; go outside print area
G92 E0.0
G1 X60.0 E9.0 F1000.0 ; intro line
M73 P0 R87
G1 X100.0 E12.5 F1000.0 ; intro line
G92 E0.0
M221 S95

; Don't change E values below. Excessive value can damage the printer.
M907 E430 ; set extruder motor current
G21 ; set units to millimeters
G90 ; use absolute coordinates
M83 ; use relative distances for extrusion
M900 K0.08 ; Filament gcode LA 1.5
M900 K45 ; Filament gcode LA 1.0
;LAYER_CHANGE
;Z:0.2
;HEIGHT:0.2
;BEFORE_LAYER_CHANGE
G92 E0.0
;0.2


G1 E-1.40000 F2100.000
G1 Z0.200 F10800.000
;AFTER_LAYER_CHANGE
;0.2
G1 Z0.400
G1 X235.708 Y148.393
G1 Z0.200
G1 E1.40000 F2100.000
M204 S1000
;TYPE:Skirt
;WIDTH:0.42
G1 F1200.000
G1 X236.299 Y148.845 E0.02333
G1 X236.750 Y149.429 E0.02313
G1 X237.027 Y150.064 E0.02171
G1 X237.145 Y150.775 E0.02262
G1 X237.147 Y168.969 E0.57046
G1 X237.037 Y169.715 E0.02364
G1 X236.760 Y170.367 E0.02220
G1 X236.358 Y170.906 E0.02107
G1 X235.873 Y171.317 E0.01996
G1 X235.251 Y171.633 E0.02187
G1 X234.617 Y171.786 E0.02045
G1 X176.088 Y177.432 E1.84365
G1 X109.860 Y182.129 E2.08175
G1 X42.061 Y185.952 E2.12916
G1 X39.516 Y185.812 E0.07993
G1 X38.056 Y185.554 E0.04647
G1 X35.646 Y184.826 E0.07895
G1 X34.457 Y184.314 E0.04058
G1 X33.308 Y183.708 E0.04072
G1 X31.224 Y182.286 E0.07911
G1 X30.114 Y181.317 E0.04619
G1 X28.425 Y179.448 E0.07899
G1 X27.025 Y177.326 E0.07970
G1 X26.411 Y176.109 E0.04275
G1 X25.891 Y174.824 E0.04345
G1 X25.240 Y172.485 E0.07612
G1 X25.021 Y171.116 E0.04346
G1 X24.919 Y169.806 E0.04120
G1 X24.925 Y168.419 E0.04350
G1 X25.206 Y166.013 E0.07596
G1 X25.521 Y164.663 E0.04346
G1 X25.922 Y163.412 E0.04119
G1 X26.452 Y162.129 E0.04351
G1 X27.623 Y160.008 E0.07596
G1 X28.427 Y158.875 E0.04358
G1 X29.269 Y157.871 E0.04107
G1 X30.244 Y156.884 E0.04351
G1 X32.130 Y155.364 E0.07596
G1 X33.293 Y154.624 E0.04323
G1 X35.591 Y153.520 E0.07994
G1 X131.234 Y113.675 E3.24865
G1 X132.702 Y113.118 E0.04921
G1 X134.081 Y112.715 E0.04506
G1 X135.487 Y112.421 E0.04504
G1 X137.093 Y112.217 E0.05076
G1 X138.635 Y112.154 E0.04839
G1 X140.162 Y112.216 E0.04791
G1 X141.686 Y112.403 E0.04815
G1 X143.186 Y112.714 E0.04802
G1 X144.720 Y113.168 E0.05017
G1 X235.652 Y148.372 E3.05730
; printing object OH1A2A-41 - EMERG JETT Button.STL id:7 copy 0
;WIPE_START
G1 F8640.000
G1 X236.299 Y148.845 E-0.18515
G1 X236.750 Y149.429 E-0.17037
G1 X237.027 Y150.064 E-0.15984
G1 X237.145 Y150.775 E-0.16658
G1 X237.146 Y153.582 E-0.64806
;WIPE_END
G1 E-0.07000 F2100.000
G1 Z0.400 F10800.000
G1 X54.950 Y168.132
G1 Z0.200
G1 E1.40000 F2100.000
;TYPE:Perimeter
G1 F1200.000
G1 X54.990 Y169.162 E0.03231
G1 X54.950 Y170.192 E0.03231
G1 X54.831 Y171.215 E0.03232
G1 X54.632 Y172.227 E0.03231
G1 X54.356 Y173.219 E0.03231
G1 X54.003 Y174.188 E0.03231
G1 X53.577 Y175.126 E0.03231
G1 X53.079 Y176.028 E0.03231
G1 X52.512 Y176.890 E0.03231
G1 X51.881 Y177.704 E0.03231
G1 X51.188 Y178.467 E0.03231
G1 X50.439 Y179.175 E0.03231
G1 X49.637 Y179.822 E0.03231
G1 X48.787 Y180.404 E0.03231
G1 X47.894 Y180.920 E0.03231
G1 X46.964 Y181.364 E0.03231
G1 X46.003 Y181.736 E0.03232
G1 X45.016 Y182.031 E0.03231
G1 X44.009 Y182.249 E0.03231
G1 X42.987 Y182.389 E0.03232
G1 X41.959 Y182.449 E0.03231
G1 X40.928 Y182.429 E0.03231
G1 X39.902 Y182.329 E0.03231
G1 X38.887 Y182.150 E0.03232
G1 X37.889 Y181.893 E0.03231
G1 X36.914 Y181.559 E0.03231
G1 X35.968 Y181.151 E0.03231
G1 X35.056 Y180.671 E0.03232
G1 X34.184 Y180.121 E0.03231
G1 X33.358 Y179.506 E0.03231
G1 X32.581 Y178.828 E0.03231
G1 X31.860 Y178.092 E0.03232
G1 X31.197 Y177.303 E0.03232
G1 X30.598 Y176.465 E0.03231
G1 X30.065 Y175.582 E0.03231
G1 X29.603 Y174.661 E0.03231
G1 X29.213 Y173.707 E0.03231
G1 X28.898 Y172.726 E0.03231
G1 X28.661 Y171.723 E0.03231
G1 X28.502 Y170.705 E0.03231
G1 X28.422 Y169.677 E0.03232
G1 X28.422 Y168.647 E0.03231
G1 X28.502 Y167.619 E0.03231
G1 X28.661 Y166.601 E0.03231
G1 X28.899 Y165.598 E0.03231
G1 X29.213 Y164.617 E0.03232
G1 X29.603 Y163.663 E0.03231
G1 X30.065 Y162.742 E0.03231
G1 X30.598 Y161.859 E0.03231
G1 X31.197 Y161.021 E0.03232
G1 X31.860 Y160.231 E0.03231
G1 X32.581 Y159.496 E0.03231
G1 X33.358 Y158.818 E0.03231
G1 X34.185 Y158.203 E0.03231
G1 X35.056 Y157.653 E0.03231
G1 X35.968 Y157.173 E0.03232
G1 X36.914 Y156.765 E0.03231
G1 X37.890 Y156.431 E0.03232
G1 X38.888 Y156.174 E0.03231
G1 X39.902 Y155.995 E0.03231
G1 X40.928 Y155.895 E0.03231
G1 X41.959 Y155.875 E0.03231
G1 X42.988 Y155.935 E0.03232
G1 X44.009 Y156.075 E0.03231
G1 X45.016 Y156.293 E0.03231
G1 X46.003 Y156.588 E0.03231
G1 X46.965 Y156.960 E0.03231
G1 X47.894 Y157.404 E0.03231
G1 X48.787 Y157.919 E0.03231
G1 X49.637 Y158.502 E0.03232
G1 X50.439 Y159.149 E0.03231
G1 X51.188 Y159.857 E0.03231
G1 X51.881 Y160.620 E0.03231
G1 X52.512 Y161.434 E0.03231
G1 X53.079 Y162.296 E0.03231
G1 X53.577 Y163.198 E0.03231
G1 X54.003 Y164.136 E0.03231
G1 X54.355 Y165.104 E0.03231
G1 X54.632 Y166.097 E0.03232
G1 X54.830 Y167.108 E0.03231
G1 X54.943 Y168.073 E0.03043
G1 X55.318 Y168.029 F10800.000
;TYPE:External perimeter
G1 F1200.000
G1 X55.367 Y169.162 E0.03556
G1 X55.326 Y170.221 E0.03323
G1 X55.203 Y171.274 E0.03323
G1 X54.999 Y172.314 E0.03323
G1 X54.715 Y173.335 E0.03323
G1 X54.352 Y174.331 E0.03323
G1 X53.914 Y175.296 E0.03323
G1 X53.402 Y176.223 E0.03323
G1 X52.819 Y177.109 E0.03323
G1 X52.170 Y177.947 E0.03323
G1 X51.458 Y178.731 E0.03323
G1 X50.687 Y179.459 E0.03323
G1 X49.862 Y180.124 E0.03323
G1 X48.988 Y180.724 E0.03323
G1 X48.070 Y181.254 E0.03323
G1 X47.114 Y181.711 E0.03323
G1 X46.125 Y182.093 E0.03323
G1 X45.110 Y182.397 E0.03323
G1 X44.074 Y182.621 E0.03323
G1 X43.024 Y182.764 E0.03323
G1 X41.966 Y182.826 E0.03323
G1 X40.906 Y182.805 E0.03323
G1 X39.851 Y182.703 E0.03323
G1 X38.808 Y182.519 E0.03323
G1 X37.781 Y182.254 E0.03323
G1 X36.779 Y181.911 E0.03323
G1 X35.805 Y181.492 E0.03323
G1 X34.868 Y180.998 E0.03323
G1 X33.971 Y180.433 E0.03323
G1 X33.121 Y179.800 E0.03323
G1 X32.322 Y179.103 E0.03323
G1 X31.580 Y178.346 E0.03323
G1 X30.899 Y177.534 E0.03323
G1 X30.283 Y176.672 E0.03323
G1 X29.735 Y175.764 E0.03323
G1 X29.259 Y174.817 E0.03323
G1 X28.859 Y173.836 E0.03323
G1 X28.535 Y172.827 E0.03323
G1 X28.291 Y171.796 E0.03323
G1 X28.127 Y170.749 E0.03323
G1 X28.045 Y169.692 E0.03323
G1 X28.045 Y168.632 E0.03323
G1 X28.127 Y167.575 E0.03323
G1 X28.291 Y166.528 E0.03323
G1 X28.535 Y165.497 E0.03323
G1 X28.859 Y164.488 E0.03323
G1 X29.259 Y163.507 E0.03323
G1 X29.735 Y162.560 E0.03323
G1 X30.283 Y161.652 E0.03323
G1 X30.899 Y160.790 E0.03323
G1 X31.580 Y159.978 E0.03323
G1 X32.322 Y159.221 E0.03323
G1 X33.121 Y158.524 E0.03323
G1 X33.971 Y157.892 E0.03323
G1 X34.868 Y157.326 E0.03323
G1 X35.805 Y156.832 E0.03323
G1 X36.779 Y156.413 E0.03323
G1 X37.781 Y156.070 E0.03323
G1 X38.808 Y155.805 E0.03323
G1 X39.851 Y155.621 E0.03323
G1 X40.906 Y155.519 E0.03323
G1 X41.966 Y155.498 E0.03323
G1 X43.024 Y155.560 E0.03323
G1 X44.074 Y155.703 E0.03323
G1 X45.110 Y155.927 E0.03323
G1 X46.125 Y156.231 E0.03323
G1 X47.114 Y156.613 E0.03323
G1 X48.070 Y157.070 E0.03323
G1 X48.988 Y157.600 E0.03323
G1 X49.862 Y158.200 E0.03323
G1 X50.687 Y158.865 E0.03323
G1 X51.458 Y159.592 E0.03323
G1 X52.170 Y160.377 E0.03323
G1 X52.819 Y161.215 E0.03323
G1 X53.402 Y162.101 E0.03323
G1 X53.914 Y163.028 E0.03323
G1 X54.352 Y163.993 E0.03323
G1 X54.715 Y164.989 E0.03323
G1 X54.999 Y166.010 E0.03324
G1 X55.203 Y167.050 E0.03323
G1 X55.311 Y167.969 E0.02901
G1 X54.989 Y168.256 F10800.000
;WIPE_START
G1 F8640.000
G1 X55.367 Y169.162 E-0.27573
G1 X55.326 Y170.221 E-0.24471
G1 X55.203 Y171.274 E-0.24474
G1 X54.999 Y172.314 E-0.24472
G1 X54.715 Y173.335 E-0.24473
G1 X54.603 Y173.641 E-0.07538
;WIPE_END
G1 E-0.07000 F2100.000
G1 Z0.400 F10800.000
G1 X52.393 Y161.465
G1 Z0.200
G1 E1.40000 F2100.000
;TYPE:Solid infill
;WIDTH:0.425289
G1 F1200.000
G1 X50.922 Y159.994 E0.06612
G1 X50.253 Y159.363 E0.02927
G1 X49.468 Y158.729 E0.03207
G1 X48.636 Y158.159 E0.03207
G1 X48.423 Y158.036 E0.00780
G1 X52.846 Y162.458 E0.19883
G1 X53.324 Y163.325 E0.03146
G1 X53.451 Y163.604 E0.00976
G1 X47.262 Y157.415 E0.27829
G1 X46.852 Y157.219 E0.01442
G1 X46.319 Y157.014 E0.01817
G1 X53.851 Y164.545 E0.33865
G1 X54.136 Y165.371 E0.02778
G1 X45.497 Y156.732 E0.38845
G1 X44.748 Y156.524 E0.02470
G1 X54.345 Y166.121 E0.43149
G1 X54.481 Y166.798 E0.02196
G1 X44.058 Y156.375 E0.46866
G1 X43.423 Y156.280 E0.02043
G1 X54.585 Y167.442 E0.50188
M73 Q0 S88
G1 X54.656 Y168.054 E0.01960
G1 X42.810 Y156.208 E0.53265
G1 X42.236 Y156.175 E0.01829
G1 X54.686 Y168.625 E0.55981
G1 X54.706 Y169.186 E0.01784
G1 X41.684 Y156.163 E0.58553
G1 X41.153 Y156.174 E0.01687
G1 X54.686 Y169.706 E0.60847
G1 X54.662 Y170.223 E0.01644
G1 X40.646 Y156.207 E0.63021
G1 X40.153 Y156.255 E0.01574
G1 X54.605 Y170.707 E0.64982
M73 P1 R87
M73 Q1 S88
G1 X54.547 Y171.190 E0.01546
G1 X39.679 Y156.322 E0.66853
G1 X39.219 Y156.403 E0.01484
G1 X54.459 Y171.642 E0.68521
G1 X54.370 Y172.094 E0.01464
G1 X38.772 Y156.496 E0.70134
G1 X38.342 Y156.607 E0.01412
G1 X54.256 Y172.521 E0.71558
G1 X54.139 Y172.944 E0.01396
G1 X37.916 Y156.721 E0.72945
G1 X37.513 Y156.859 E0.01354
G1 X54.006 Y173.352 E0.74161
G1 X53.862 Y173.749 E0.01341
G1 X37.110 Y156.997 E0.75324
G1 X36.726 Y157.154 E0.01318
G1 X53.714 Y174.141 E0.76382
G1 X53.545 Y174.513 E0.01298
G1 X36.348 Y157.317 E0.77321
M73 P1 R86
G1 X35.978 Y157.487 E0.01296
G1 X53.376 Y174.885 E0.78226
G1 X53.190 Y175.241 E0.01275
G1 X35.624 Y157.674 E0.78986
G1 X35.270 Y157.861 E0.01273
G1 X52.998 Y175.589 E0.79714
G1 X52.802 Y175.934 E0.01261
G1 X34.933 Y158.065 E0.80345
G1 X34.602 Y158.274 E0.01247
G1 X52.588 Y176.260 E0.80872
G1 X52.373 Y176.586 E0.01241
G1 X34.275 Y158.488 E0.81377
G1 X33.965 Y158.719 E0.01229
G1 X52.146 Y176.900 E0.81750
G1 X51.910 Y177.205 E0.01225
G1 X33.655 Y158.950 E0.82082
G1 X33.358 Y159.193 E0.01222
G1 X51.674 Y177.509 E0.82356
G1 X51.418 Y177.794 E0.01217
G1 X33.069 Y159.445 E0.82502
G1 X32.780 Y159.697 E0.01219
G1 X51.160 Y178.077 E0.82643
G1 X50.896 Y178.354 E0.01216
G1 X32.512 Y159.970 E0.82661
G1 X32.245 Y160.243 E0.01216
G1 X50.618 Y178.617 E0.82614
G1 X50.340 Y178.879 E0.01216
G1 X31.984 Y160.523 E0.82535
G1 X31.737 Y160.817 E0.01220
G1 X50.047 Y179.127 E0.82328
G1 X49.748 Y179.369 E0.01223
G1 X31.491 Y161.111 E0.82091
G1 X31.259 Y161.421 E0.01228
G1 X49.447 Y179.609 E0.81780
G1 X49.126 Y179.829 E0.01237
G1 X31.034 Y161.736 E0.81351
G1 X30.811 Y162.054 E0.01234
G1 X48.806 Y180.049 E0.80911
G1 X48.474 Y180.258 E0.01246
G1 X30.607 Y162.391 E0.80337
G1 X30.404 Y162.728 E0.01252
G1 X48.132 Y180.456 E0.79711
G1 X47.789 Y180.654 E0.01259
G1 X30.213 Y163.078 E0.79028
G1 X30.032 Y163.438 E0.01281
G1 X47.425 Y180.831 E0.78204
G1 X47.059 Y181.006 E0.01289
G1 X29.853 Y163.799 E0.77366
G1 X29.696 Y164.183 E0.01319
G1 X46.683 Y181.170 E0.76379
G1 X46.293 Y181.321 E0.01329
G1 X29.539 Y164.567 E0.75330
G1 X29.398 Y164.967 E0.01348
G1 X45.902 Y181.471 E0.74208
G1 X45.486 Y181.595 E0.01381
G1 X29.267 Y165.376 E0.72927
G1 X29.143 Y165.793 E0.01383
G1 X45.069 Y181.720 E0.71612
G1 X44.633 Y181.825 E0.01426
G1 X29.039 Y166.230 E0.70117
G1 X28.937 Y166.668 E0.01430
G1 X44.189 Y181.921 E0.68580
G1 X43.729 Y182.002 E0.01484
G1 X28.863 Y167.136 E0.66842
G1 X28.790 Y167.604 E0.01505
G1 X43.254 Y182.067 E0.65032
G1 X42.764 Y182.119 E0.01564
G1 X28.748 Y168.102 E0.63024
M73 P2 R86
M73 Q2 S88
G1 X28.709 Y168.604 E0.01600
G1 X42.253 Y182.148 E0.60902
M73 Q2 S87
G1 X41.726 Y182.161 E0.01678
G1 X28.705 Y169.140 E0.58548
G1 X28.706 Y169.682 E0.01723
G1 X41.174 Y182.151 E0.56062
G1 X40.595 Y182.112 E0.01846
G1 X28.751 Y170.269 E0.53253
G1 X28.814 Y170.872 E0.01929
G1 X39.996 Y182.054 E0.50278
G1 X39.345 Y181.943 E0.02100
G1 X28.914 Y171.513 E0.46899
G1 X29.066 Y172.205 E0.02253
G1 X38.660 Y181.799 E0.43139
G1 X37.927 Y181.607 E0.02410
G1 X29.266 Y172.946 E0.38940
G1 X29.541 Y173.762 E0.02736
G1 X37.105 Y181.325 E0.34008
G1 X36.167 Y180.929 E0.03235
G1 X29.939 Y174.701 E0.28003
G1 X30.313 Y175.445 E0.02648
G1 X30.572 Y175.875 E0.01594
G1 X34.996 Y180.299 E0.19892
G1 X34.344 Y179.888 E0.02449
G1 X33.536 Y179.286 E0.03207
G1 X32.804 Y178.648 E0.03085
G1 X31.027 Y176.870 E0.07992
; stop printing object OH1A2A-41 - EMERG JETT Button.STL id:7 copy 0
; printing object OH1A2A-33 - .55 SQ Indicator Actuator.STL id:4 copy 0
;WIPE_START
G1 F8640.000
G1 X32.804 Y178.648 E-0.58042
G1 X33.536 Y179.286 E-0.22407
G1 X34.344 Y179.888 E-0.23290
G1 X34.996 Y180.299 E-0.17786
G1 X34.645 Y179.947 E-0.11474
;WIPE_END
G1 E-0.07000 F2100.000
G1 Z0.400 F10800.000
G1 X64.202 Y175.649
G1 Z0.200
G1 E1.40000 F2100.000
;TYPE:External perimeter
;WIDTH:0.42
G1 F1200.000
G1 X64.202 Y169.705 E0.18638
G1 X76.179 Y169.705 E0.37553
G1 X76.179 Y175.649 E0.18638
G1 X64.262 Y175.649 E0.37365
G1 X63.807 Y175.710 F10800.000
;WIPE_START
G1 F8640.000
G1 X64.204 Y169.889 E-1.33000
;WIPE_END
G1 E-0.07000 F2100.000
G1 Z0.400 F10800.000
G1 X64.262 Y169.617
G1 Z0.200
G1 E1.40000 F2100.000
G1 F1200.000
G1 X64.202 Y169.617 E0.00188
G1 X64.202 Y163.672 E0.18638
G1 X76.179 Y163.672 E0.37553
G1 X76.179 Y169.617 E0.18638
G1 X64.322 Y169.617 E0.37177
G1 X64.240 Y169.673 F10800.000
;WIPE_START
G1 F8640.000
G1 X64.202 Y169.617 E-0.02771
G1 X64.202 Y163.977 E-1.30229
;WIPE_END
G1 E-0.07000 F2100.000
G1 Z0.400 F10800.000
G1 X64.114 Y163.584
G1 Z0.200
G1 E1.40000 F2100.000
G1 F1200.000
G1 X76.267 Y163.584 E0.38105
G1 X76.267 Y175.737 E0.38105
G1 X64.114 Y175.737 E0.38105
G1 X64.114 Y163.644 E0.37917
G1 X64.500 Y163.688 F10800.000
; stop printing object OH1A2A-33 - .55 SQ Indicator Actuator.STL id:4 copy 0
; printing object OH1A2A-20 - Master Mode Pushbutton Base.STL id:0 copy 0
;WIPE_START
G1 F8640.000
G1 X69.874 Y163.616 E-1.33000
;WIPE_END
G1 E-0.07000 F2100.000
G1 Z0.400 F10800.000
G1 X94.308 Y168.274
G1 Z0.200
G1 E1.40000 F2100.000
;TYPE:Perimeter
G1 F1200.000
G1 X94.845 Y168.358 E0.01704
G1 X94.321 Y168.440 E0.01664
G1 X94.314 Y168.334 E0.00336
;WIPE_START
G1 F8640.000
G1 X94.845 Y168.358 E-0.12289
G1 X94.321 Y168.440 E-0.12252
G1 X94.314 Y168.334 E-0.02474
;WIPE_END
G1 E-1.12985 F2100.000
G1 Z0.400 F10800.000
G1 X107.558 Y168.358
G1 Z0.200
G1 E1.40000 F2100.000
G1 F1200.000
G1 X108.092 Y168.274 E0.01695
G1 X108.092 Y168.442 E0.00527
G1 X107.618 Y168.367 E0.01507
;WIPE_START
G1 F8640.000
G1 X108.092 Y168.274 E-0.11162
M73 P2 R85
G1 X108.092 Y168.442 E-0.03879
G1 X107.618 Y168.367 E-0.11094
;WIPE_END
G1 E-1.13864 F2100.000
G1 Z0.400 F10800.000
G1 X93.547 Y169.046
G1 Z0.200
G1 E1.40000 F2100.000
;TYPE:External perimeter
G1 F1200.000
G1 X93.714 Y168.923 E0.00650
G1 X93.811 Y168.803 E0.00485
G1 X93.916 Y168.570 E0.00800
G1 X93.942 Y168.418 E0.00485
G1 X93.920 Y168.154 E0.00829
G1 X93.807 Y167.905 E0.00857
G1 X93.618 Y167.708 E0.00857
G1 X93.382 Y167.589 E0.00828
G1 X93.231 Y167.556 E0.00485
G1 X92.967 Y167.568 E0.00829
G1 X92.713 Y167.670 E0.00857
G1 X92.515 Y167.844 E0.00828
G1 X92.428 Y167.972 E0.00485
G1 X92.395 Y168.067 E0.00315
G1 X92.395 Y167.392 E0.02116
G1 X92.508 Y166.907 E0.01562
G1 X92.558 Y166.390 E0.01629
G1 X92.568 Y158.955 E0.23313
G1 X92.591 Y157.639 E0.04125
G1 X92.871 Y157.358 E0.01243
