; generated by PrusaSlicer 2.3.0+win64 on 2021-03-07 at 07:47:25 UTC

; 

; external perimeters extrusion width = 0.45mm
; perimeters extrusion width = 0.45mm
; infill extrusion width = 0.45mm
; solid infill extrusion width = 0.45mm
; top infill extrusion width = 0.40mm
; support material extrusion width = 0.35mm
; first layer extrusion width = 0.42mm

M73 P0 R152
M73 Q0 S153
M201 X1000 Y1000 Z200 E5000 ; sets maximum accelerations, mm/sec^2
M203 X200 Y200 Z12 E120 ; sets maximum feedrates, mm/sec
M204 P1250 R1250 T1250 ; sets acceleration (P, T) and retract acceleration (R), mm/sec^2
M205 X8.00 Y8.00 Z0.40 E4.50 ; sets the jerk limits, mm/sec
M205 S0 T0 ; sets the minimum extruding and travel feed rate, mm/sec
M107
;TYPE:Custom
M862.3 P "MK3S" ; printer model check
M862.1 P0.4 ; nozzle diameter check
M115 U3.9.3 ; tell printer latest fw version
G90 ; use absolute coordinates
M83 ; extruder relative mode
M104 S230 ; set extruder temp
M140 S85 ; set bed temp
M190 S85 ; wait for bed temp
M109 S230 ; wait for extruder temp
G28 W ; home all without mesh bed level
G80 ; mesh bed leveling
G1 Y-3.0 F1000.0 ; go outside print area
G92 E0.0
G1 X60.0 E9.0 F1000.0 ; intro line
G1 X100.0 E12.5 F1000.0 ; intro line
G92 E0.0
M221 S95

; Don't change E values below. Excessive value can damage the printer.
M907 E430 ; set extruder motor current
G21 ; set units to millimeters
G90 ; use absolute coordinates
M83 ; use relative distances for extrusion
M900 K0.08 ; Filament gcode LA 1.5
M900 K45 ; Filament gcode LA 1.0
;LAYER_CHANGE
;Z:0.2
;HEIGHT:0.2
;BEFORE_LAYER_CHANGE
G92 E0.0
;0.2


G1 E-1.40000 F2100.000
G1 Z0.200 F10800.000
;AFTER_LAYER_CHANGE
;0.2
G1 Z0.400
G1 X40.151 Y43.471
G1 Z0.200
G1 E1.40000 F2100.000
M204 S1000
;TYPE:Skirt
;WIDTH:0.42
G1 F1200.000
G1 X40.515 Y42.961 E0.01965
G1 X41.000 Y42.564 E0.01965
G1 X41.572 Y42.308 E0.01965
G1 X42.195 Y42.210 E0.01977
G1 X101.080 Y42.040 E1.84631
G1 X167.465 Y42.210 E2.08146
G1 X168.248 Y42.351 E0.02496
G1 X168.938 Y42.741 E0.02484
G1 X169.318 Y43.130 E0.01704
G1 X169.602 Y43.598 E0.01716
G1 X208.509 Y129.269 E2.95019
G1 X208.799 Y130.165 E0.02953
G1 X208.876 Y130.908 E0.02342
G1 X208.876 Y168.404 E1.17565
G1 X208.725 Y169.471 E0.03380
G1 X208.402 Y170.274 E0.02712
G1 X207.834 Y171.071 E0.03071
G1 X207.275 Y171.579 E0.02366
G1 X169.797 Y199.528 E1.46589
G1 X169.108 Y199.934 E0.02507
G1 X168.209 Y200.225 E0.02965
G1 X167.454 Y200.301 E0.02379
G1 X81.400 Y200.301 E2.69816
G1 X80.645 Y200.226 E0.02378
G1 X80.014 Y200.047 E0.02057
G1 X79.222 Y199.643 E0.02786
G1 X34.432 Y171.689 E1.65545
G1 X33.544 Y170.873 E0.03779
G1 X33.039 Y170.058 E0.03006
G1 X32.748 Y169.162 E0.02953
G1 X32.672 Y168.419 E0.02343
G1 X32.675 Y130.798 E1.17958
G1 X39.881 Y44.385 E2.71881
G1 X40.134 Y43.528 E0.02801
; printing object OH1A8A2A-13 - HUD Panel Legend Plate.STL id:0 copy 0
;WIPE_START
G1 F8640.000
G1 X40.515 Y42.961 E-0.15785
G1 X41.000 Y42.564 E-0.14470
G1 X41.572 Y42.308 E-0.14470
G1 X42.195 Y42.210 E-0.14557
G1 X45.387 Y42.201 E-0.73719
;WIPE_END
G1 E-0.07000 F2100.000
G1 Z0.400 F10800.000
G1 X124.434 Y175.710
G1 Z0.200
G1 E1.40000 F2100.000
;TYPE:Perimeter
G1 F1200.000
G1 X125.149 Y175.323 E0.02546
G1 X125.917 Y175.059 E0.02546
G1 X126.718 Y174.926 E0.02546
G1 X127.530 Y174.926 E0.02546
G1 X128.331 Y175.059 E0.02546
G1 X129.099 Y175.323 E0.02546
G1 X129.813 Y175.710 E0.02546
G1 X130.454 Y176.208 E0.02546
G1 X131.004 Y176.806 E0.02546
G1 X131.448 Y177.486 E0.02546
G1 X131.775 Y178.230 E0.02546
G1 X131.974 Y179.017 E0.02546
G1 X132.038 Y179.794 E0.02444
G1 X132.038 Y183.669 E0.12150
G1 X131.974 Y184.446 E0.02444
G1 X131.775 Y185.233 E0.02546
G1 X131.448 Y185.977 E0.02546
G1 X131.004 Y186.656 E0.02546
G1 X130.454 Y187.254 E0.02546
G1 X129.813 Y187.753 E0.02546
G1 X129.099 Y188.139 E0.02546
G1 X128.331 Y188.403 E0.02546
G1 X127.530 Y188.537 E0.02546
G1 X126.718 Y188.537 E0.02546
G1 X125.917 Y188.403 E0.02546
G1 X125.149 Y188.139 E0.02546
G1 X124.434 Y187.753 E0.02546
G1 X123.793 Y187.254 E0.02546
G1 X123.243 Y186.656 E0.02546
G1 X122.799 Y185.977 E0.02546
G1 X122.473 Y185.233 E0.02546
G1 X122.274 Y184.446 E0.02546
G1 X122.209 Y183.669 E0.02444
G1 X122.209 Y179.794 E0.12150
G1 X122.274 Y179.017 E0.02444
G1 X122.473 Y178.230 E0.02546
G1 X122.799 Y177.486 E0.02546
G1 X123.243 Y176.806 E0.02546
G1 X123.793 Y176.208 E0.02546
G1 X124.387 Y175.747 E0.02358
G1 X124.619 Y176.044 F10800.000
;TYPE:External perimeter
G1 F1200.000
G1 X125.301 Y175.670 E0.02439
G1 X126.010 Y175.426 E0.02350
G1 X126.749 Y175.303 E0.02350
G1 X127.499 Y175.303 E0.02350
G1 X128.238 Y175.426 E0.02350
G1 X128.947 Y175.670 E0.02350
G1 X129.606 Y176.026 E0.02350
G1 X130.198 Y176.487 E0.02350
G1 X130.706 Y177.038 E0.02350
G1 X131.116 Y177.666 E0.02350
G1 X131.417 Y178.352 E0.02350
G1 X131.601 Y179.079 E0.02350
G1 X131.661 Y179.809 E0.02297
G1 X131.661 Y183.653 E0.12052
G1 X131.601 Y184.383 E0.02297
G1 X131.417 Y185.110 E0.02350
G1 X131.116 Y185.797 E0.02350
G1 X130.706 Y186.424 E0.02350
G1 X130.198 Y186.976 E0.02350
G1 X129.606 Y187.436 E0.02350
G1 X128.947 Y187.793 E0.02350
G1 X128.238 Y188.036 E0.02350
G1 X127.499 Y188.160 E0.02350
G1 X126.749 Y188.160 E0.02350
G1 X126.010 Y188.036 E0.02350
G1 X125.301 Y187.793 E0.02350
G1 X124.971 Y187.614 E0.01175
G1 X124.641 Y187.436 E0.01175
G1 X124.050 Y186.976 E0.02350
G1 X123.542 Y186.424 E0.02350
G1 X123.132 Y185.797 E0.02350
G1 X122.831 Y185.110 E0.02350
M73 P0 R151
G1 X122.647 Y184.383 E0.02350
G1 X122.586 Y183.653 E0.02297
G1 X122.586 Y179.809 E0.12052
G1 X122.647 Y179.079 E0.02297
G1 X122.831 Y178.352 E0.02350
G1 X123.132 Y177.666 E0.02350
G1 X123.542 Y177.038 E0.02350
G1 X124.050 Y176.487 E0.02350
G1 X124.571 Y176.081 E0.02072
G1 X124.595 Y175.645 F10800.000
;WIPE_START
G1 F8640.000
G1 X125.301 Y175.670 E-0.19334
G1 X126.010 Y175.426 E-0.17309
G1 X126.749 Y175.303 E-0.17309
G1 X127.499 Y175.303 E-0.17309
G1 X128.238 Y175.426 E-0.17309
G1 X128.947 Y175.670 E-0.17309
G1 X129.606 Y176.026 E-0.17310
G1 X129.942 Y176.287 E-0.09810
;WIPE_END
G1 E-0.07000 F2100.000
G1 Z0.400 F10800.000
G1 X139.998 Y185.379
G1 Z0.200
G1 E1.40000 F2100.000
;TYPE:Perimeter
G1 F1200.000
G1 X140.328 Y185.004 E0.01565
G1 X140.716 Y184.691 E0.01565
G1 X141.152 Y184.447 E0.01565
G1 X141.622 Y184.281 E0.01565
G1 X142.114 Y184.197 E0.01565
G1 X142.613 Y184.197 E0.01565
G1 X143.105 Y184.281 E0.01565
G1 X143.576 Y184.447 E0.01565
G1 X144.012 Y184.691 E0.01565
G1 X144.400 Y185.004 E0.01565
G1 X144.730 Y185.379 E0.01565
G1 X144.991 Y185.804 E0.01565
G1 X145.177 Y186.267 E0.01565
G1 X145.283 Y186.755 E0.01565
G1 X145.304 Y187.254 E0.01565
G1 X145.240 Y187.749 E0.01565
G1 X145.094 Y188.226 E0.01565
G1 X144.869 Y188.672 E0.01565
G1 X144.573 Y189.073 E0.01565
G1 X144.212 Y189.418 E0.01565
G1 X143.799 Y189.698 E0.01565
G1 X143.344 Y189.903 E0.01565
G1 X142.861 Y190.029 E0.01565
G1 X142.364 Y190.071 E0.01565
G1 X141.866 Y190.029 E0.01565
G1 X141.383 Y189.903 E0.01565
G1 X140.929 Y189.698 E0.01565
G1 X140.515 Y189.418 E0.01565
G1 X140.155 Y189.073 E0.01565
G1 X139.858 Y188.672 E0.01565
G1 X139.633 Y188.226 E0.01565
G1 X139.487 Y187.749 E0.01565
G1 X139.430 Y187.298 E0.01425
G1 X139.444 Y186.759 E0.01689
G1 X139.550 Y186.267 E0.01579
G1 X139.736 Y185.804 E0.01565
G1 X139.967 Y185.430 E0.01377
G1 X140.288 Y185.628 F10800.000
;TYPE:External perimeter
G1 F1200.000
G1 X140.590 Y185.278 E0.01450
G1 X140.928 Y185.004 E0.01364
G1 X141.308 Y184.792 E0.01364
G1 X141.718 Y184.647 E0.01364
G1 X142.146 Y184.574 E0.01364
G1 X142.581 Y184.574 E0.01364
G1 X143.010 Y184.647 E0.01364
G1 X143.420 Y184.792 E0.01364
G1 X143.800 Y185.004 E0.01364
G1 X144.138 Y185.278 E0.01364
G1 X144.425 Y185.604 E0.01364
G1 X144.653 Y185.974 E0.01364
G1 X144.816 Y186.378 E0.01364
G1 X144.907 Y186.803 E0.01364
G1 X144.926 Y187.238 E0.01364
G1 X144.870 Y187.669 E0.01364
G1 X144.743 Y188.085 E0.01364
G1 X144.547 Y188.473 E0.01364
G1 X144.289 Y188.823 E0.01364
G1 X143.975 Y189.124 E0.01364
G1 X143.614 Y189.367 E0.01364
G1 X143.218 Y189.546 E0.01364
G1 X142.797 Y189.656 E0.01364
G1 X142.364 Y189.693 E0.01364
G1 X141.930 Y189.656 E0.01364
G1 X141.510 Y189.546 E0.01364
G1 X141.113 Y189.367 E0.01364
G1 X140.753 Y189.124 E0.01364
G1 X140.439 Y188.823 E0.01364
G1 X140.180 Y188.473 E0.01364
G1 X139.985 Y188.085 E0.01364
G1 X139.857 Y187.669 E0.01364
G1 X139.807 Y187.279 E0.01233
G1 X139.820 Y186.805 E0.01487
G1 X139.912 Y186.378 E0.01369
G1 X140.074 Y185.974 E0.01364
G1 X140.256 Y185.679 E0.01088
G1 X140.125 Y185.262 F10800.000
;WIPE_START
G1 F8640.000
G1 X140.590 Y185.278 E-0.12048
G1 X140.928 Y185.004 E-0.10042
G1 X141.308 Y184.792 E-0.10042
G1 X141.718 Y184.647 E-0.10042
G1 X142.146 Y184.574 E-0.10042
G1 X142.581 Y184.574 E-0.10042
G1 X143.010 Y184.647 E-0.10042
G1 X143.420 Y184.792 E-0.10042
G1 X143.800 Y185.004 E-0.10042
G1 X144.138 Y185.278 E-0.10042
G1 X144.425 Y185.604 E-0.10042
G1 X144.653 Y185.974 E-0.10042
G1 X144.816 Y186.378 E-0.10042
G1 X144.820 Y186.397 E-0.00447
;WIPE_END
G1 E-0.07000 F2100.000
G1 Z0.400 F10800.000
G1 X148.097 Y183.278
G1 Z0.200
G1 E1.40000 F2100.000
;TYPE:Perimeter
G1 F1200.000
G1 X147.930 Y182.034 E0.03933
G1 X147.982 Y180.824 E0.03797
G1 X148.237 Y179.641 E0.03797
G1 X148.688 Y178.517 E0.03797
G1 X149.323 Y177.486 E0.03797
G1 X150.123 Y176.577 E0.03797
G1 X151.066 Y175.816 E0.03797
G1 X152.123 Y175.225 E0.03797
G1 X153.265 Y174.822 E0.03797
G1 X154.458 Y174.617 E0.03797
G1 X155.669 Y174.617 E0.03797
G1 X156.863 Y174.822 E0.03797
M73 Q0 S152
G1 X158.005 Y175.225 E0.03797
G1 X159.062 Y175.816 E0.03797
G1 X160.004 Y176.577 E0.03797
G1 X160.804 Y177.486 E0.03797
G1 X161.439 Y178.517 E0.03797
G1 X161.891 Y179.641 E0.03797
G1 X162.146 Y180.824 E0.03797
G1 X162.197 Y182.034 E0.03797
G1 X162.043 Y183.235 E0.03797
G1 X161.689 Y184.393 E0.03797
G1 X161.144 Y185.475 E0.03797
G1 X160.424 Y186.448 E0.03797
G1 X159.549 Y187.286 E0.03797
G1 X158.546 Y187.964 E0.03797
G1 X157.442 Y188.463 E0.03797
G1 X156.270 Y188.768 E0.03797
G1 X155.064 Y188.871 E0.03797
G1 X153.857 Y188.768 E0.03797
G1 X152.685 Y188.463 E0.03797
G1 X151.582 Y187.964 E0.03797
G1 X150.578 Y187.286 E0.03797
G1 X149.704 Y186.448 E0.03797
G1 X148.984 Y185.475 E0.03797
G1 X148.439 Y184.393 E0.03797
G1 X148.115 Y183.335 E0.03471
G1 X148.475 Y183.225 F10800.000
;TYPE:External perimeter
G1 F1200.000
G1 X148.308 Y182.018 E0.03819
G1 X148.357 Y180.872 E0.03596
G1 X148.599 Y179.751 E0.03596
G1 X149.026 Y178.687 E0.03596
G1 X149.628 Y177.711 E0.03596
G1 X150.385 Y176.850 E0.03596
G1 X151.278 Y176.129 E0.03596
G1 X152.279 Y175.570 E0.03596
G1 X153.360 Y175.188 E0.03596
G1 X154.490 Y174.994 E0.03596
G1 X155.637 Y174.994 E0.03596
G1 X156.768 Y175.188 E0.03596
G1 X157.849 Y175.570 E0.03596
G1 X158.850 Y176.129 E0.03596
G1 X159.742 Y176.850 E0.03596
G1 X160.500 Y177.711 E0.03596
G1 X161.101 Y178.687 E0.03596
G1 X161.529 Y179.751 E0.03596
G1 X161.770 Y180.872 E0.03596
G1 X161.819 Y182.018 E0.03596
G1 X161.674 Y183.156 E0.03596
G1 X161.338 Y184.252 E0.03596
G1 X160.821 Y185.276 E0.03596
G1 X160.139 Y186.198 E0.03596
G1 X159.311 Y186.992 E0.03596
G1 X158.361 Y187.634 E0.03596
G1 X157.316 Y188.106 E0.03596
G1 X156.206 Y188.395 E0.03596
G1 X155.064 Y188.493 E0.03596
G1 X153.921 Y188.395 E0.03596
G1 X152.811 Y188.106 E0.03596
G1 X151.766 Y187.634 E0.03596
G1 X150.816 Y186.992 E0.03596
G1 X149.988 Y186.198 E0.03596
G1 X149.306 Y185.276 E0.03596
G1 X148.790 Y184.252 E0.03596
G1 X148.493 Y183.282 E0.03182
G1 X148.093 Y183.105 F10800.000
;WIPE_START
G1 F8640.000
G1 X148.308 Y182.018 E-0.29490
G1 X148.357 Y180.872 E-0.26481
G1 X148.599 Y179.751 E-0.26481
G1 X149.026 Y178.687 E-0.26481
G1 X149.573 Y177.800 E-0.24068
;WIPE_END
G1 E-0.07000 F2100.000
G1 Z0.400 F10800.000
G1 X135.449 Y158.612
G1 Z0.200
G1 E1.40000 F2100.000
;TYPE:Perimeter
G1 F1200.000
G1 X134.681 Y158.876 E0.02546
G1 X133.880 Y159.009 E0.02546
G1 X133.068 Y159.009 E0.02546
G1 X132.267 Y158.876 E0.02546
G1 X131.499 Y158.612 E0.02546
G1 X130.784 Y158.225 E0.02546
G1 X130.143 Y157.727 E0.02546
G1 X129.593 Y157.129 E0.02546
G1 X129.149 Y156.449 E0.02546
G1 X128.823 Y155.705 E0.02546
G1 X128.624 Y154.918 E0.02546
G1 X128.559 Y154.141 E0.02444
G1 X128.559 Y150.266 E0.12150
G1 X128.624 Y149.489 E0.02444
G1 X128.823 Y148.702 E0.02546
G1 X129.149 Y147.958 E0.02546
G1 X129.593 Y147.278 E0.02546
G1 X130.143 Y146.681 E0.02546
G1 X130.784 Y146.182 E0.02546
G1 X131.499 Y145.796 E0.02546
G1 X132.267 Y145.532 E0.02546
G1 X133.068 Y145.398 E0.02546
G1 X133.880 Y145.398 E0.02546
G1 X134.681 Y145.532 E0.02546
G1 X135.449 Y145.796 E0.02546
G1 X136.163 Y146.182 E0.02546
G1 X136.804 Y146.681 E0.02546
G1 X137.354 Y147.278 E0.02546
G1 X137.798 Y147.958 E0.02546
G1 X138.125 Y148.702 E0.02546
G1 X138.324 Y149.489 E0.02546
G1 X138.388 Y150.266 E0.02444
G1 X138.388 Y154.141 E0.12150
G1 X138.324 Y154.918 E0.02444
G1 X138.125 Y155.705 E0.02546
G1 X137.798 Y156.449 E0.02546
G1 X137.354 Y157.129 E0.02546
G1 X136.804 Y157.727 E0.02546
G1 X136.163 Y158.225 E0.02546
G1 X135.502 Y158.583 E0.02358
G1 X135.322 Y158.252 F10800.000
;TYPE:External perimeter
G1 F1200.000
G1 X134.588 Y158.509 E0.02439
G1 X133.849 Y158.632 E0.02350
G1 X133.099 Y158.632 E0.02350
G1 X132.360 Y158.509 E0.02350
G1 X131.651 Y158.265 E0.02350
G1 X130.991 Y157.909 E0.02350
G1 X130.400 Y157.448 E0.02350
G1 X129.892 Y156.897 E0.02350
G1 X129.482 Y156.269 E0.02350
G1 X129.181 Y155.583 E0.02350
G1 X128.997 Y154.856 E0.02350
G1 X128.936 Y154.126 E0.02297
G1 X128.936 Y150.282 E0.12052
G1 X128.997 Y149.552 E0.02297
G1 X129.181 Y148.825 E0.02350
G1 X129.482 Y148.138 E0.02350
G1 X129.892 Y147.511 E0.02350
G1 X130.400 Y146.959 E0.02350
G1 X130.991 Y146.499 E0.02350
G1 X131.651 Y146.142 E0.02350
G1 X132.360 Y145.899 E0.02350
G1 X133.099 Y145.775 E0.02350
G1 X133.849 Y145.775 E0.02350
G1 X134.588 Y145.899 E0.02350
G1 X135.297 Y146.142 E0.02350
G1 X135.956 Y146.499 E0.02350
G1 X136.548 Y146.959 E0.02350
G1 X137.056 Y147.511 E0.02350
G1 X137.466 Y148.138 E0.02350
G1 X137.767 Y148.825 E0.02350
G1 X137.951 Y149.552 E0.02350
G1 X138.011 Y150.282 E0.02297
G1 X138.011 Y154.126 E0.12052
G1 X137.951 Y154.856 E0.02297
G1 X137.767 Y155.583 E0.02350
G1 X137.466 Y156.269 E0.02350
G1 X137.056 Y156.897 E0.02350
G1 X136.548 Y157.448 E0.02350
G1 X135.956 Y157.909 E0.02350
G1 X135.375 Y158.223 E0.02072
G1 X135.280 Y158.649 F10800.000
;WIPE_START
G1 F8640.000
G1 X134.588 Y158.509 E-0.19334
G1 X133.849 Y158.632 E-0.17309
G1 X133.099 Y158.632 E-0.17309
G1 X132.360 Y158.509 E-0.17309
G1 X131.651 Y158.265 E-0.17309
G1 X130.991 Y157.909 E-0.17309
G1 X130.400 Y157.448 E-0.17309
G1 X130.112 Y157.136 E-0.09810
;WIPE_END
G1 E-0.07000 F2100.000
G1 Z0.400 F10800.000
G1 X111.878 Y153.708
G1 Z0.200
G1 E1.40000 F2100.000
;TYPE:Perimeter
G1 F1200.000
G1 X111.524 Y154.866 E0.03797
G1 X110.979 Y155.947 E0.03797
G1 X110.259 Y156.921 E0.03797
G1 X109.384 Y157.759 E0.03797
G1 X108.381 Y158.437 E0.03797
G1 X107.277 Y158.936 E0.03797
G1 X106.105 Y159.241 E0.03797
G1 X104.899 Y159.344 E0.03797
G1 X103.692 Y159.241 E0.03797
G1 X102.520 Y158.936 E0.03797
G1 X101.417 Y158.437 E0.03797
G1 X100.413 Y157.759 E0.03797
G1 X99.539 Y156.921 E0.03797
G1 X98.819 Y155.947 E0.03797
G1 X98.274 Y154.866 E0.03797
G1 X97.919 Y153.708 E0.03797
G1 X97.765 Y152.507 E0.03797
G1 X97.817 Y151.297 E0.03797
G1 X98.072 Y150.113 E0.03797
G1 X98.523 Y148.989 E0.03797
G1 X99.158 Y147.958 E0.03797
G1 X99.958 Y147.049 E0.03797
G1 X100.901 Y146.288 E0.03797
G1 X101.958 Y145.698 E0.03797
G1 X103.100 Y145.294 E0.03797
G1 X104.293 Y145.090 E0.03797
G1 X105.504 Y145.090 E0.03797
G1 X106.698 Y145.294 E0.03797
G1 X107.768 Y145.672 E0.03558
G1 X108.895 Y146.286 E0.04023
G1 X109.839 Y147.049 E0.03807
G1 X110.639 Y147.958 E0.03797
G1 X111.274 Y148.989 E0.03797
G1 X111.726 Y150.113 E0.03797
G1 X111.981 Y151.297 E0.03797
G1 X112.032 Y152.507 E0.03797
G1 X111.886 Y153.648 E0.03609
G1 X111.512 Y153.601 F10800.000
;TYPE:External perimeter
G1 F1200.000
G1 X111.173 Y154.725 E0.03682
G1 X110.656 Y155.749 E0.03596
G1 X109.974 Y156.671 E0.03596
G1 X109.146 Y157.464 E0.03596
G1 X108.196 Y158.107 E0.03596
G1 X107.151 Y158.579 E0.03596
G1 X106.041 Y158.868 E0.03596
G1 X104.899 Y158.965 E0.03596
