; generated by PrusaSlicer 2.3.0+win64 on 2021-03-06 at 11:29:54 UTC

; 

; external perimeters extrusion width = 0.60mm
; perimeters extrusion width = 0.50mm
; infill extrusion width = 0.50mm
; solid infill extrusion width = 0.50mm
; top infill extrusion width = 0.45mm
; first layer extrusion width = 0.42mm

M73 P0 R140
M73 Q0 S141
M201 X1000 Y1000 Z200 E5000 ; sets maximum accelerations, mm/sec^2
M203 X200 Y200 Z12 E120 ; sets maximum feedrates, mm/sec
M204 P1250 R1250 T1250 ; sets acceleration (P, T) and retract acceleration (R), mm/sec^2
M205 X8.00 Y8.00 Z0.40 E4.50 ; sets the jerk limits, mm/sec
M205 S0 T0 ; sets the minimum extruding and travel feed rate, mm/sec
M107
;TYPE:Custom
M862.3 P "MK3S" ; printer model check
M862.1 P0.4 ; nozzle diameter check
M115 U3.9.2 ; tell printer latest fw version
G90 ; use absolute coordinates
M83 ; extruder relative mode
M104 S230 ; set extruder temp
M140 S85 ; set bed temp
M190 S85 ; wait for bed temp
M109 S230 ; wait for extruder temp
G28 W ; home all without mesh bed level
G80 ; mesh bed leveling
G1 Y-3.0 F1000.0 ; go outside print area
G92 E0.0
G1 X60.0 E9.0 F1000.0 ; intro line
G1 X100.0 E12.5 F1000.0 ; intro line
G92 E0.0
M221 S95

; Don't change E values below. Excessive value can damage the printer.

M907 E538 ; set extruder motor current
G21 ; set units to millimeters
G90 ; use absolute coordinates
M83 ; use relative distances for extrusion
M900 K0.08 ; Filament gcode LA 1.5
M900 K45 ; Filament gcode LA 1.0
;LAYER_CHANGE
;Z:0.2
;HEIGHT:0.2
;BEFORE_LAYER_CHANGE
G92 E0.0
;0.2


G1 E-1.40000 F2100.000
G1 Z0.200 F10800.000
;AFTER_LAYER_CHANGE
;0.2
G1 Z0.400
G1 X57.476 Y28.663
G1 Z0.200
G1 E1.40000 F2100.000
M204 S1000
;TYPE:Skirt
;WIDTH:0.42
G1 F1863.000
G1 X57.700 Y28.504 E0.00861
G1 X124.141 Y11.887 E2.14737
G1 X169.918 Y11.882 E1.43532
G1 X170.165 Y11.976 E0.00828
G1 X229.301 Y63.772 E2.46482
G1 X229.414 Y63.948 E0.00657
G1 X229.425 Y130.470 E2.08575
G1 X226.327 Y138.511 E0.27018
G1 X222.805 Y146.299 E0.26799
G1 X218.854 Y153.877 E0.26798
G1 X214.481 Y161.228 E0.26818
G1 X209.711 Y168.313 E0.26779
G1 X204.549 Y175.125 E0.26798
M73 P0 R139
G1 X199.013 Y181.638 E0.26803
G1 X193.128 Y187.825 E0.26770
G1 X192.939 Y187.931 E0.00680
G1 X85.752 Y198.429 E3.37686
G1 X48.134 Y198.430 E1.17949
G1 X47.927 Y198.368 E0.00675
G1 X47.757 Y198.053 E0.01125
G1 X47.757 Y120.244 E2.43964
G1 X57.470 Y28.723 E2.88570
;WIPE_START
G1 F8640.000
G1 X57.700 Y28.504 E-0.07334
G1 X62.980 Y27.183 E-1.25666
;WIPE_END
G1 E-0.07000 F2100.000
G1 Z0.400 F10800.000
G1 X48.066 Y115.552
G1 Z0.200
G1 E1.40000 F2100.000
G1 F1863.000
G1 X47.624 Y115.552 E0.01384
G1 X46.401 Y115.850 E0.03948
G1 X45.585 Y116.259 E0.02862
G1 X44.572 Y117.159 E0.04248
G1 X44.005 Y117.915 E0.02965
G1 X43.420 Y119.719 E0.05945
G1 X43.420 Y198.563 E2.47208
G1 X43.719 Y199.786 E0.03947
G1 X44.128 Y200.602 E0.02862
G1 X45.027 Y201.615 E0.04248
G1 X45.784 Y202.182 E0.02965
G1 X47.588 Y202.766 E0.05945
G1 X86.167 Y202.766 E1.20961
G1 X88.011 Y202.196 E0.06054
G1 X89.068 Y201.398 E0.04152
G1 X89.863 Y200.349 E0.04128
G1 X90.857 Y198.119 E0.07656
G1 X91.034 Y197.722 F10800.000
G1 F1863.000
G1 X95.089 Y188.624 E0.31232
G1 X95.392 Y187.197 E0.04574
G1 X95.392 Y119.754 E2.11465
G1 X95.031 Y118.371 E0.04481
G1 X94.241 Y117.154 E0.04551
G1 X93.022 Y116.130 E0.04990
G1 X92.114 Y115.739 E0.03101
M73 Q0 S140
G1 X91.165 Y115.555 E0.03029
G1 X48.445 Y115.552 E1.33947
G1 X48.405 Y115.929 F10800.000
G1 F1863.000
G1 X91.146 Y115.933 E1.34013
G1 X92.020 Y116.105 E0.02791
G1 X92.845 Y116.464 E0.02823
G1 X93.976 Y117.423 E0.04647
G1 X94.675 Y118.497 E0.04018
G1 X95.015 Y119.779 E0.04157
G1 X95.015 Y187.178 E2.11325
G1 X94.736 Y188.489 E0.04203
G1 X90.602 Y197.765 E0.31842
G1 X90.425 Y198.161 F10800.000
G1 F1863.000
G1 X89.528 Y200.175 E0.06914
G1 X88.785 Y201.148 E0.03839
G1 X87.812 Y201.874 E0.03806
G1 X86.139 Y202.389 E0.05491
G1 X47.618 Y202.389 E1.20777
G1 X45.933 Y201.834 E0.05564
G1 X45.296 Y201.350 E0.02508
G1 X44.452 Y200.409 E0.03965
G1 X44.079 Y199.673 E0.02585
G1 X43.797 Y198.539 E0.03664
G1 X43.797 Y119.750 E2.47039
G1 X44.352 Y118.064 E0.05564
G1 X44.837 Y117.428 E0.02508
G1 X45.778 Y116.584 E0.03965
G1 X46.514 Y116.211 E0.02585
G1 X47.648 Y115.929 E0.03664
G1 X48.026 Y115.929 E0.01185
G1 X47.986 Y116.306 F10800.000
G1 F1863.000
G1 X47.672 Y116.306 E0.00984
G1 X46.628 Y116.571 E0.03376
G1 X45.973 Y116.907 E0.02308
G1 X45.103 Y117.695 E0.03679
G1 X44.672 Y118.266 E0.02245
G1 X44.175 Y119.780 E0.04996
G1 X44.175 Y198.515 E2.46870
G1 X44.439 Y199.559 E0.03376
G1 X44.776 Y200.213 E0.02308
G1 X45.563 Y201.083 E0.03679
G1 X46.135 Y201.515 E0.02245
G1 X47.648 Y202.012 E0.04996
G1 X86.111 Y202.012 E1.20596
G1 X87.613 Y201.553 E0.04926
G1 X88.538 Y200.862 E0.03620
G1 X89.192 Y200.002 E0.03388
G1 X89.994 Y198.203 E0.06174
G1 X90.170 Y197.807 F10800.000
G1 F1863.000
G1 X94.384 Y188.353 E0.32452
G1 X94.638 Y187.158 E0.03832
G1 X94.638 Y119.803 E2.11187
G1 X94.341 Y118.675 E0.03655
G1 X93.709 Y117.691 E0.03669
G1 X92.667 Y116.798 E0.04302
G1 X91.924 Y116.470 E0.02545
G1 X91.127 Y116.310 E0.02550
G1 X48.365 Y116.306 E1.34078
G1 X48.325 Y116.683 F10800.000
G1 F1863.000
G1 X91.108 Y116.687 E1.34142
G1 X91.827 Y116.835 E0.02304
G1 X92.487 Y117.130 E0.02266
G1 X93.441 Y117.958 E0.03960
G1 X93.985 Y118.802 E0.03149
G1 X94.261 Y119.828 E0.03331
G1 X94.261 Y187.138 E2.11046
G1 X94.031 Y188.218 E0.03461
G1 X89.739 Y197.849 E0.33062
G1 X89.562 Y198.245 F10800.000
G1 F1863.000
G1 X88.857 Y199.827 E0.05431
G1 X88.256 Y200.611 E0.03095
G1 X87.416 Y201.230 E0.03272
G1 X86.083 Y201.635 E0.04368
G1 X47.678 Y201.635 E1.20415
G1 X46.335 Y201.194 E0.04432
G1 X45.829 Y200.815 E0.01984
G1 X45.098 Y200.016 E0.03395
G1 X44.798 Y199.442 E0.02030
G1 X44.552 Y198.491 E0.03082
G1 X44.552 Y119.810 E2.46699
G1 X44.993 Y118.467 E0.04432
G1 X45.372 Y117.960 E0.01984
G1 X46.170 Y117.229 E0.03395
G1 X46.744 Y116.930 E0.02030
G1 X47.696 Y116.683 E0.03083
G1 X47.946 Y116.683 E0.00782
G1 X47.906 Y117.060 F10800.000
G1 F1863.000
G1 X47.721 Y117.060 E0.00578
G1 X46.863 Y117.288 E0.02783
G1 X46.370 Y117.550 E0.01752
G1 X45.639 Y118.226 E0.03121
G1 X45.340 Y118.618 E0.01546
G1 X44.929 Y119.841 E0.04045
G1 X44.929 Y198.466 E2.46522
G1 X45.157 Y199.323 E0.02783
G1 X45.419 Y199.817 E0.01752
G1 X46.095 Y200.548 E0.03121
G1 X46.486 Y200.847 E0.01546
G1 X47.709 Y201.258 E0.04045
G1 X86.055 Y201.258 E1.20231
G1 X87.220 Y200.906 E0.03816
G1 X87.975 Y200.357 E0.02925
G1 X88.522 Y199.653 E0.02797
G1 X89.130 Y198.288 E0.04686
G1 X89.307 Y197.891 F10800.000
G1 F1863.000
G1 X93.679 Y188.082 E0.33672
G1 X93.884 Y187.118 E0.03091
G1 X93.884 Y119.853 E2.10907
G1 X93.651 Y118.979 E0.02835
G1 X93.171 Y118.222 E0.02809
G1 X92.307 Y117.463 E0.03609
G1 X91.692 Y117.188 E0.02110
G1 X91.088 Y117.064 E0.01932
G1 X48.285 Y117.060 E1.34208
G1 X48.245 Y117.437 F10800.000
G1 F1863.000
G1 X91.068 Y117.441 E1.34269
G1 X91.593 Y117.552 E0.01681
G1 X92.124 Y117.793 E0.01829
G1 X92.901 Y118.486 E0.03263
G1 X93.295 Y119.107 E0.02306
G1 X93.507 Y119.878 E0.02510
G1 X93.507 Y187.099 E2.10764
G1 X93.326 Y187.947 E0.02720
G1 X88.875 Y197.934 E0.34282
G1 X88.699 Y198.330 F10800.000
G1 F1863.000
G1 X88.187 Y199.477 E0.03939
G1 X87.696 Y200.103 E0.02493
G1 X87.027 Y200.581 E0.02578
G1 X86.028 Y200.881 E0.03272
G1 X47.740 Y200.881 E1.20049
G1 X46.689 Y200.528 E0.03476
G1 X46.358 Y200.277 E0.01301
G1 X45.738 Y199.615 E0.02845
G1 X45.514 Y199.202 E0.01474
G1 X45.306 Y198.440 E0.02477
G1 X45.306 Y119.872 E2.46345
M73 P0 R138
G1 X45.659 Y118.821 E0.03476
G1 X45.909 Y118.490 E0.01301
G1 X46.572 Y117.870 E0.02845
G1 X46.985 Y117.646 E0.01474
G1 X47.747 Y117.437 E0.02477
G1 X47.866 Y117.437 E0.00372
G1 X47.826 Y117.814 F10800.000
G1 F1863.000
G1 X47.774 Y117.814 E0.00162
G1 X47.110 Y118.002 E0.02163
G1 X46.777 Y118.187 E0.01196
G1 X46.181 Y118.752 E0.02573
G1 X45.979 Y119.022 E0.01059
G1 X45.683 Y119.902 E0.02912
G1 X45.683 Y198.413 E2.46165
G1 X45.871 Y199.077 E0.02162
G1 X46.055 Y199.410 E0.01196
G1 X46.620 Y200.006 E0.02573
G1 X46.891 Y200.208 E0.01059
G1 X47.771 Y200.504 E0.02912
G1 X86.001 Y200.504 E1.19867
G1 X86.836 Y200.254 E0.02735
G1 X87.419 Y199.845 E0.02232
G1 X87.853 Y199.301 E0.02181
G1 X88.267 Y198.372 E0.03190
G1 X88.444 Y197.976 F10800.000
G1 F1863.000
G1 X92.974 Y187.812 E0.34892
G1 X93.130 Y187.079 E0.02349
M73 P1 R138
G1 X93.130 Y119.905 E2.10618
M73 Q1 S140
G1 X92.940 Y119.237 E0.02179
G1 X92.629 Y118.748 E0.01818
G1 X91.938 Y118.123 E0.02920
G1 X91.490 Y117.916 E0.01548
G1 X91.047 Y117.818 E0.01423
G1 X48.205 Y117.814 E1.34328
G1 X48.165 Y118.191 F10800.000
G1 F1863.000
G1 X91.025 Y118.195 E1.34384
G1 X91.384 Y118.278 E0.01157
G1 X91.750 Y118.451 E0.01268
G1 X92.355 Y119.008 E0.02580
G1 X92.587 Y119.370 E0.01347
G1 X92.753 Y119.933 E0.01841
G1 X92.753 Y187.059 E2.10468
G1 X92.621 Y187.676 E0.01978
G1 X88.012 Y198.018 E0.35502
G1 X87.835 Y198.414 F10800.000
G1 F1863.000
G1 X87.519 Y199.124 E0.02437
G1 X87.145 Y199.585 E0.01861
G1 X86.648 Y199.926 E0.01888
G1 X85.973 Y200.127 E0.02207
G1 X47.802 Y200.127 E1.19685
G1 X47.090 Y199.887 E0.02355
G1 X46.880 Y199.732 E0.00819
G1 X46.370 Y199.202 E0.02305
G1 X46.225 Y198.947 E0.00919
G1 X46.060 Y198.385 E0.01838
G1 X46.060 Y119.933 E2.45980
G1 X46.300 Y119.222 E0.02355
G1 X46.455 Y119.011 E0.00819
G1 X46.985 Y118.502 E0.02305
G1 X47.240 Y118.357 E0.00919
G1 X47.785 Y118.196 E0.01783
G1 X47.743 Y118.596 F10800.000
G1 F1863.000
G1 X47.374 Y118.710 E0.01209
G1 X47.198 Y118.814 E0.00643
G1 X46.731 Y119.269 E0.02044
G1 X46.622 Y119.419 E0.00580
G1 X46.437 Y119.964 E0.01806
G1 X46.437 Y198.355 E2.45790
M73 Q1 S139
G1 X46.578 Y198.812 E0.01500
G1 X46.682 Y198.989 E0.00643
G1 X47.137 Y199.456 E0.02044
G1 X47.287 Y199.565 E0.00580
G1 X47.833 Y199.750 E0.01806
G1 X85.946 Y199.750 E1.19503
G1 X86.463 Y199.597 E0.01691
G1 X86.874 Y199.322 E0.01547
G1 X87.185 Y198.946 E0.01531
G1 X87.404 Y198.457 E0.01681
G1 X87.580 Y198.061 F10800.000
G1 F1863.000
G1 X92.269 Y187.541 E0.36112
G1 X92.376 Y187.039 E0.01607
G1 X92.376 Y119.963 E2.10313
G1 X92.235 Y119.507 E0.01495
G1 X92.080 Y119.267 E0.00898
G1 X91.561 Y118.779 E0.02233
G1 X91.241 Y118.627 E0.01109
G1 X91.003 Y118.572 E0.00767
G1 X48.125 Y118.568 E1.34441
G1 X48.085 Y118.946 F10800.000
G1 F1863.000
G1 X90.981 Y118.949 E1.34497
G1 X91.098 Y118.977 E0.00377
G1 X91.371 Y119.106 E0.00947
G1 X91.802 Y119.522 E0.01880
G1 X91.886 Y119.650 E0.00479
G1 X91.999 Y119.995 E0.01136
G1 X91.999 Y187.019 E2.10152
G1 X91.917 Y187.405 E0.01237
G1 X87.149 Y198.103 E0.36723
G1 X86.972 Y198.499 F10800.000
G1 F1863.000
G1 X86.853 Y198.767 E0.00919
G1 X86.607 Y199.055 E0.01187
G1 X86.282 Y199.265 E0.01212
G1 X85.919 Y199.373 E0.01187
G1 X47.865 Y199.373 E1.19318
G1 X47.482 Y199.241 E0.01270
G1 X47.392 Y199.178 E0.00343
G1 X46.990 Y198.771 E0.01795
G1 X46.928 Y198.670 E0.00371
G1 X46.814 Y198.324 E0.01144
G1 X46.814 Y119.996 E2.45591
G1 X46.946 Y119.613 E0.01270
G1 X47.009 Y119.524 E0.00343
G1 X47.416 Y119.122 E0.01795
G1 X47.517 Y119.059 E0.00371
G1 X47.700 Y118.999 E0.00605
G1 X47.656 Y119.414 F10800.000
G1 F1863.000
G1 X47.291 Y119.775 E0.01611
G1 X47.191 Y120.030 E0.00856
G1 X47.191 Y198.289 E2.45375
G1 X47.273 Y198.516 E0.00757
G1 X47.644 Y198.896 E0.01666
G1 X47.898 Y198.996 E0.00856
G1 X85.892 Y198.996 E1.19127
G1 X86.100 Y198.934 E0.00679
G1 X86.379 Y198.753 E0.01042
G1 X86.540 Y198.541 E0.00836
G1 X86.717 Y198.145 F10800.000
G1 F1863.000
G1 X91.564 Y187.270 E0.37333
G1 X91.622 Y187.000 E0.00866
G1 X91.622 Y120.030 E2.09980
G1 X91.522 Y119.775 E0.00856
G1 X91.179 Y119.432 E0.01522
G1 X90.960 Y119.329 E0.00757
G1 X48.045 Y119.323 E1.34559
G1 X48.005 Y119.700 F10800.000
G1 F1863.000
G1 X90.873 Y119.700 E1.34409
G1 X90.942 Y119.728 E0.00235
G1 X91.216 Y120.002 E0.01215
G1 X91.244 Y120.072 E0.00235
G1 X91.244 Y186.980 E2.09786
G1 X91.212 Y187.134 E0.00495
G1 X86.285 Y198.187 E0.37943
G1 X85.918 Y198.602 F10800.000
G1 F1863.000
G1 X85.865 Y198.619 E0.00176
G1 X48.175 Y198.619 E1.18173
G1 X48.133 Y198.619 F10800.000
G1 F1863.000
G1 X47.940 Y198.619 E0.00606
G1 X47.871 Y198.590 E0.00235
G1 X47.597 Y198.316 E0.01215
G1 X47.568 Y198.247 E0.00235
G1 X47.568 Y120.072 E2.45112
G1 X47.592 Y120.014 E0.00197
G1 X47.954 Y120.179 F10800.000
G1 F1863.000
G1 X48.056 Y120.077 E0.00452
G1 X90.757 Y120.077 E1.33887
G1 X90.867 Y120.187 E0.00490
G1 X90.867 Y186.960 E2.09362
G1 X85.875 Y198.181 E0.38506
G1 X85.790 Y198.236 E0.00318
;WIPE_START
G1 F8640.000
G1 X85.875 Y198.181 E-0.02343
G1 X88.175 Y193.011 E-1.30657
;WIPE_END
G1 E-0.07000 F2100.000
G1 Z0.400 F10800.000
G1 X53.078 Y71.894
G1 Z0.200
G1 E1.40000 F2100.000
G1 F1863.000
G1 X53.078 Y107.167 E1.10597
G1 X53.376 Y108.390 E0.03947
G1 X53.785 Y109.206 E0.02862
G1 X54.685 Y110.219 E0.04248
G1 X55.441 Y110.787 E0.02965
G1 X57.245 Y111.371 E0.05945
G1 X95.824 Y111.371 E1.20961
G1 X97.669 Y110.801 E0.06054
G1 X98.726 Y110.003 E0.04152
G1 X99.521 Y108.953 E0.04128
G1 X104.746 Y97.229 E0.40247
G1 X105.050 Y95.802 E0.04574
G1 X105.050 Y28.358 E2.11465
M73 P1 R137
G1 X104.689 Y26.975 E0.04481
G1 X103.898 Y25.758 E0.04551
G1 X102.680 Y24.735 E0.04990
G1 X101.771 Y24.344 E0.03101
G1 X100.823 Y24.160 E0.03029
G1 X75.854 Y24.158 E0.78288
;WIPE_START
G1 F8640.000
G1 X81.614 Y24.158 E-1.33000
;WIPE_END
G1 E-0.07000 F2100.000
G1 Z0.400 F10800.000
G1 X74.300 Y24.158
G1 Z0.200
G1 E1.40000 F2100.000
G1 F1863.000
G1 X57.282 Y24.156 E0.53360
G1 X56.059 Y24.455 E0.03948
G1 X55.243 Y24.863 E0.02862
G1 X54.229 Y25.763 E0.04248
G1 X53.662 Y26.520 E0.02965
G1 X53.078 Y28.324 E0.05945
G1 X53.078 Y68.320 E1.25407
G1 X53.455 Y68.340 F10800.000
G1 F1863.000
G1 X53.455 Y107.144 E1.21665
G1 X53.737 Y108.278 E0.03664
G1 X54.110 Y109.013 E0.02585
G1 X54.954 Y109.955 E0.03965
G1 X55.590 Y110.439 E0.02508
G1 X57.276 Y110.994 E0.05564
G1 X95.796 Y110.994 E1.20777
G1 X97.470 Y110.479 E0.05491
G1 X98.443 Y109.753 E0.03806
G1 X99.185 Y108.779 E0.03839
G1 X104.394 Y97.093 E0.40115
G1 X104.673 Y95.782 E0.04203
G1 X104.673 Y28.383 E2.11325
G1 X104.333 Y27.102 E0.04157
G1 X103.633 Y26.028 E0.04018
G1 X102.503 Y25.069 E0.04647
G1 X101.677 Y24.710 E0.02823
G1 X100.804 Y24.537 E0.02791
G1 X74.347 Y24.535 E0.82955
;WIPE_START
G1 F8640.000
G1 X80.107 Y24.535 E-1.33000
;WIPE_END
G1 E-0.07000 F2100.000
G1 Z0.400 F10800.000
G1 X72.793 Y24.535
G1 Z0.200
G1 E1.40000 F2100.000
G1 F1863.000
G1 X57.305 Y24.533 E0.48561
G1 X56.171 Y24.815 E0.03664
G1 X55.436 Y25.188 E0.02585
G1 X54.494 Y26.032 E0.03965
G1 X54.010 Y26.669 E0.02508
G1 X53.455 Y28.354 E0.05564
G1 X53.455 Y64.767 E1.14170
G1 X53.832 Y64.787 F10800.000
G1 F1863.000
G1 X53.832 Y107.120 E1.32731
G1 X54.097 Y108.163 E0.03376
G1 X54.433 Y108.818 E0.02308
G1 X55.221 Y109.688 E0.03679
G1 X55.792 Y110.119 E0.02245
G1 X57.306 Y110.617 E0.04996
G1 X95.768 Y110.617 E1.20596
G1 X97.270 Y110.157 E0.04926
G1 X98.196 Y109.466 E0.03620
G1 X98.850 Y108.606 E0.03388
G1 X104.041 Y96.958 E0.39985
G1 X104.296 Y95.763 E0.03832
G1 X104.296 Y28.407 E2.11188
M73 Q1 S138
G1 X103.999 Y27.280 E0.03655
G1 X103.366 Y26.295 E0.03669
G1 X102.325 Y25.402 E0.04302
G1 X101.582 Y25.075 E0.02545
G1 X100.785 Y24.914 E0.02550
G1 X72.840 Y24.912 E0.87620
;WIPE_START
G1 F8640.000
G1 X78.600 Y24.912 E-1.33000
;WIPE_END
G1 E-0.07000 F2100.000
G1 Z0.400 F10800.000
G1 X71.286 Y24.912
G1 Z0.200
G1 E1.40000 F2100.000
G1 F1863.000
G1 X57.329 Y24.910 E0.43760
G1 X56.286 Y25.175 E0.03376
G1 X55.631 Y25.512 E0.02308
G1 X54.761 Y26.299 E0.03679
G1 X54.330 Y26.871 E0.02245
G1 X53.832 Y28.384 E0.04996
G1 X53.832 Y61.214 E1.02935
G1 X54.209 Y61.234 F10800.000
G1 F1863.000
G1 X54.209 Y107.095 E1.43796
G1 X54.456 Y108.047 E0.03082
G1 X54.756 Y108.621 E0.02030
G1 X55.486 Y109.420 E0.03395
G1 X55.993 Y109.799 E0.01984
G1 X57.336 Y110.240 E0.04432
G1 X95.741 Y110.240 E1.20415
G1 X97.073 Y109.834 E0.04368
G1 X97.913 Y109.215 E0.03272
G1 X98.515 Y108.432 E0.03095
G1 X103.689 Y96.823 E0.39852
G1 X103.919 Y95.743 E0.03461
G1 X103.919 Y28.433 E2.11046
G1 X103.643 Y27.407 E0.03331
G1 X103.099 Y26.562 E0.03149
G1 X102.145 Y25.735 E0.03960
G1 X101.485 Y25.440 E0.02266
G1 X100.765 Y25.291 E0.02304
G1 X71.333 Y25.289 E0.92284
;WIPE_START
G1 F8640.000
