; generated by PrusaSlicer 2.3.0+win64 on 2021-03-07 at 07:35:25 UTC

; 

; external perimeters extrusion width = 0.45mm
; perimeters extrusion width = 0.45mm
; infill extrusion width = 0.45mm
; solid infill extrusion width = 0.45mm
; top infill extrusion width = 0.40mm
; support material extrusion width = 0.35mm
; first layer extrusion width = 0.42mm

M73 P0 R197
M73 Q0 S197
M201 X1000 Y1000 Z200 E5000 ; sets maximum accelerations, mm/sec^2
M203 X200 Y200 Z12 E120 ; sets maximum feedrates, mm/sec
M204 P1250 R1250 T1250 ; sets acceleration (P, T) and retract acceleration (R), mm/sec^2
M205 X8.00 Y8.00 Z0.40 E4.50 ; sets the jerk limits, mm/sec
M205 S0 T0 ; sets the minimum extruding and travel feed rate, mm/sec
M107
;TYPE:Custom
M862.3 P "MK3S" ; printer model check
M862.1 P0.4 ; nozzle diameter check
M115 U3.9.3 ; tell printer latest fw version
G90 ; use absolute coordinates
M83 ; extruder relative mode
M104 S230 ; set extruder temp
M140 S85 ; set bed temp
M190 S85 ; wait for bed temp
M109 S230 ; wait for extruder temp
G28 W ; home all without mesh bed level
G80 ; mesh bed leveling
G1 Y-3.0 F1000.0 ; go outside print area
G92 E0.0
G1 X60.0 E9.0 F1000.0 ; intro line
M73 P0 R196
G1 X100.0 E12.5 F1000.0 ; intro line
G92 E0.0
M221 S95

; Don't change E values below. Excessive value can damage the printer.
M907 E430 ; set extruder motor current
G21 ; set units to millimeters
G90 ; use absolute coordinates
M83 ; use relative distances for extrusion
M900 K0.08 ; Filament gcode LA 1.5
M900 K45 ; Filament gcode LA 1.0
;LAYER_CHANGE
;Z:0.2
;HEIGHT:0.2
;BEFORE_LAYER_CHANGE
G92 E0.0
;0.2


G1 E-1.40000 F2100.000
G1 Z0.200 F10800.000
;AFTER_LAYER_CHANGE
;0.2
G1 Z0.400
G1 X11.009 Y26.276
G1 Z0.200
G1 E1.40000 F2100.000
M204 S1000
;TYPE:Skirt
;WIDTH:0.42
G1 F1200.000
G1 X11.605 Y26.182 E0.01894
G1 X114.851 Y24.419 E3.23767
G1 X233.066 Y25.648 E3.70675
G1 X233.635 Y25.728 E0.01799
G1 X234.164 Y25.939 E0.01787
G1 X234.627 Y26.271 E0.01787
G1 X235.001 Y26.706 E0.01799
G1 X246.087 Y43.441 E0.62940
G1 X246.343 Y43.976 E0.01858
G1 X246.458 Y44.557 E0.01858
G1 X246.062 Y184.439 E4.38592
G1 X245.960 Y185.115 E0.02142
G1 X245.672 Y185.730 E0.02130
G1 X234.488 Y202.401 E0.62944
G1 X233.842 Y203.040 E0.02849
G1 X233.218 Y203.335 E0.02166
G1 X232.535 Y203.438 E0.02166
G1 X14.628 Y203.948 E6.83235
G1 X14.051 Y203.876 E0.01823
G1 X13.508 Y203.667 E0.01823
G1 X13.030 Y203.329 E0.01835
G1 X12.651 Y202.889 E0.01823
G1 X12.360 Y202.279 E0.02119
G1 X12.253 Y201.611 E0.02120
G1 X9.297 Y28.595 E5.42559
G1 X9.372 Y27.965 E0.01989
G1 X9.610 Y27.378 E0.01989
G1 X9.977 Y26.893 E0.01906
G1 X10.452 Y26.519 E0.01894
G1 X10.954 Y26.300 E0.01718
; printing object OH1A8A1A-12 - UFC Inner Spacer Plate.STL id:1 copy 0
;WIPE_START
G1 F8640.000
G1 X11.605 Y26.182 E-0.15291
G1 X16.702 Y26.095 E-1.17709
;WIPE_END
G1 E-0.07000 F2100.000
G1 Z0.400 F10800.000
G1 X178.122 Y120.139
G1 Z0.200
G1 E1.40000 F2100.000
;TYPE:Perimeter
G1 F1200.000
G1 X194.302 Y120.186 E0.50729
G1 X194.255 Y136.365 E0.50729
G1 X178.076 Y136.318 E0.50729
G1 X178.122 Y120.199 E0.50540
G1 X178.498 Y120.517 F10800.000
;TYPE:External perimeter
G1 F1200.000
G1 X193.923 Y120.562 E0.48364
G1 X193.879 Y135.987 E0.48364
M73 Q0 S196
G1 X178.454 Y135.942 E0.48364
G1 X178.498 Y120.577 E0.48176
G1 X178.396 Y120.131 F10800.000
;WIPE_START
G1 F8640.000
G1 X184.258 Y120.572 E-1.33000
;WIPE_END
G1 E-0.07000 F2100.000
G1 Z0.400 F10800.000
G1 X159.326 Y120.085
G1 Z0.200
G1 E1.40000 F2100.000
;TYPE:Perimeter
G1 F1200.000
G1 X175.506 Y120.132 E0.50729
G1 X175.459 Y136.311 E0.50729
G1 X159.280 Y136.264 E0.50729
G1 X159.326 Y120.145 E0.50540
G1 X159.702 Y120.463 F10800.000
;TYPE:External perimeter
G1 F1200.000
G1 X175.127 Y120.508 E0.48364
G1 X175.083 Y135.933 E0.48364
G1 X159.658 Y135.888 E0.48364
G1 X159.702 Y120.523 E0.48176
M73 P0 R195
G1 X159.600 Y120.077 F10800.000
;WIPE_START
G1 F8640.000
G1 X165.462 Y120.518 E-1.33000
;WIPE_END
G1 E-0.07000 F2100.000
G1 Z0.400 F10800.000
G1 X178.068 Y138.935
G1 Z0.200
G1 E1.40000 F2100.000
;TYPE:Perimeter
G1 F1200.000
G1 X194.247 Y138.982 E0.50729
G1 X194.201 Y155.161 E0.50729
G1 X178.022 Y155.114 E0.50729
G1 X178.068 Y138.995 E0.50540
G1 X178.444 Y139.313 F10800.000
;TYPE:External perimeter
G1 F1200.000
G1 X193.869 Y139.358 E0.48364
G1 X193.825 Y154.783 E0.48364
G1 X178.400 Y154.738 E0.48364
G1 X178.444 Y139.373 E0.48176
G1 X178.342 Y138.927 F10800.000
;WIPE_START
G1 F8640.000
G1 X184.204 Y139.367 E-1.33000
;WIPE_END
G1 E-0.07000 F2100.000
G1 Z0.400 F10800.000
G1 X159.272 Y138.881
G1 Z0.200
G1 E1.40000 F2100.000
;TYPE:Perimeter
G1 F1200.000
G1 X175.452 Y138.928 E0.50729
G1 X175.405 Y155.107 E0.50729
G1 X159.226 Y155.060 E0.50729
G1 X159.272 Y138.941 E0.50540
G1 X159.648 Y139.259 F10800.000
;TYPE:External perimeter
G1 F1200.000
G1 X175.073 Y139.304 E0.48364
G1 X175.029 Y154.729 E0.48364
G1 X159.604 Y154.684 E0.48364
G1 X159.648 Y139.319 E0.48176
G1 X159.546 Y138.873 F10800.000
;WIPE_START
G1 F8640.000
G1 X165.408 Y139.313 E-1.33000
;WIPE_END
G1 E-0.07000 F2100.000
G1 Z0.400 F10800.000
G1 X159.218 Y157.677
G1 Z0.200
G1 E1.40000 F2100.000
;TYPE:Perimeter
G1 F1200.000
G1 X175.397 Y157.724 E0.50729
G1 X175.351 Y173.903 E0.50729
G1 X159.172 Y173.856 E0.50729
G1 X159.218 Y157.737 E0.50540
G1 X159.594 Y158.055 F10800.000
;TYPE:External perimeter
G1 F1200.000
G1 X175.019 Y158.100 E0.48364
G1 X174.975 Y173.524 E0.48364
G1 X159.550 Y173.480 E0.48364
G1 X159.594 Y158.115 E0.48176
G1 X159.492 Y157.669 F10800.000
;WIPE_START
G1 F8640.000
G1 X165.354 Y158.109 E-1.33000
;WIPE_END
G1 E-0.07000 F2100.000
G1 Z0.400 F10800.000
G1 X178.014 Y157.731
G1 Z0.200
G1 E1.40000 F2100.000
;TYPE:Perimeter
G1 F1200.000
G1 X194.193 Y157.778 E0.50729
G1 X194.147 Y173.957 E0.50729
G1 X177.968 Y173.910 E0.50729
G1 X178.014 Y157.791 E0.50540
G1 X178.390 Y158.109 F10800.000
;TYPE:External perimeter
G1 F1200.000
G1 X193.815 Y158.154 E0.48364
G1 X193.771 Y173.579 E0.48364
G1 X178.346 Y173.534 E0.48364
G1 X178.390 Y158.169 E0.48176
G1 X178.288 Y157.723 F10800.000
;WIPE_START
G1 F8640.000
G1 X184.150 Y158.163 E-1.33000
;WIPE_END
G1 E-0.07000 F2100.000
G1 Z0.400 F10800.000
G1 X176.098 Y183.965
G1 Z0.200
G1 E1.40000 F2100.000
;TYPE:Perimeter
G1 F1200.000
G1 X176.764 Y184.112 E0.02139
G1 X177.399 Y184.351 E0.02128
G1 X177.994 Y184.678 E0.02128
G1 X178.536 Y185.087 E0.02128
G1 X179.015 Y185.568 E0.02128
G1 X179.420 Y186.113 E0.02128
G1 X179.744 Y186.709 E0.02128
G1 X179.979 Y187.346 E0.02128
G1 X180.122 Y188.010 E0.02128
G1 X180.168 Y188.687 E0.02128
G1 X180.118 Y189.364 E0.02128
G1 X179.972 Y190.027 E0.02128
G1 X179.733 Y190.662 E0.02129
G1 X179.406 Y191.257 E0.02128
G1 X178.997 Y191.799 E0.02128
G1 X178.516 Y192.278 E0.02128
G1 X177.971 Y192.683 E0.02129
G1 X177.374 Y193.007 E0.02128
G1 X176.738 Y193.242 E0.02128
G1 X176.074 Y193.385 E0.02128
G1 X175.397 Y193.431 E0.02128
G1 X174.720 Y193.381 E0.02128
G1 X174.057 Y193.235 E0.02128
G1 X173.422 Y192.995 E0.02128
G1 X172.827 Y192.668 E0.02128
G1 X172.284 Y192.260 E0.02128
G1 X171.806 Y191.779 E0.02128
G1 X171.400 Y191.234 E0.02128
G1 X171.077 Y190.637 E0.02128
G1 X170.841 Y190.001 E0.02128
G1 X170.699 Y189.337 E0.02128
G1 X170.653 Y188.660 E0.02128
G1 X170.703 Y187.983 E0.02128
G1 X170.849 Y187.320 E0.02128
G1 X171.088 Y186.684 E0.02128
G1 X171.415 Y186.090 E0.02128
G1 X171.824 Y185.547 E0.02128
G1 X172.305 Y185.069 E0.02128
G1 X172.850 Y184.663 E0.02128
G1 X173.446 Y184.340 E0.02128
G1 X174.083 Y184.104 E0.02128
G1 X174.747 Y183.962 E0.02128
G1 X175.371 Y183.919 E0.01962
G1 X176.038 Y183.961 E0.02096
G1 X176.014 Y184.338 F10800.000
;TYPE:External perimeter
G1 F1200.000
G1 X176.656 Y184.474 E0.02059
G1 X177.241 Y184.695 E0.01959
G1 X177.789 Y184.996 E0.01959
G1 X178.288 Y185.372 E0.01959
G1 X178.729 Y185.815 E0.01959
G1 X179.102 Y186.316 E0.01959
G1 X179.400 Y186.865 E0.01959
G1 X179.616 Y187.451 E0.01959
G1 X179.747 Y188.062 E0.01959
G1 X179.790 Y188.686 E0.01959
G1 X179.744 Y189.309 E0.01959
G1 X179.609 Y189.919 E0.01959
G1 X179.389 Y190.504 E0.01959
G1 X179.088 Y191.052 E0.01959
G1 X178.712 Y191.551 E0.01959
G1 X178.269 Y191.992 E0.01959
G1 X177.768 Y192.365 E0.01959
G1 X177.218 Y192.663 E0.01959
G1 X176.632 Y192.879 E0.01959
G1 X176.021 Y193.010 E0.01959
G1 X175.398 Y193.053 E0.01959
G1 X174.775 Y193.007 E0.01959
G1 X174.164 Y192.872 E0.01959
G1 X173.580 Y192.652 E0.01959
G1 X173.032 Y192.351 E0.01959
G1 X172.533 Y191.975 E0.01959
G1 X172.092 Y191.532 E0.01959
G1 X171.719 Y191.031 E0.01959
G1 X171.421 Y190.481 E0.01959
G1 X171.205 Y189.895 E0.01959
G1 X171.073 Y189.284 E0.01959
G1 X171.031 Y188.661 E0.01959
G1 X171.077 Y188.038 E0.01959
G1 X171.212 Y187.427 E0.01959
G1 X171.432 Y186.842 E0.01959
G1 X171.733 Y186.295 E0.01959
G1 X172.109 Y185.796 E0.01959
G1 X172.552 Y185.355 E0.01959
G1 X173.053 Y184.982 E0.01959
G1 X173.602 Y184.684 E0.01959
G1 X174.189 Y184.467 E0.01959
G1 X174.800 Y184.336 E0.01959
G1 X175.372 Y184.297 E0.01799
G1 X175.954 Y184.334 E0.01829
G1 X176.261 Y184.023 F10800.000
;WIPE_START
G1 F8640.000
G1 X176.656 Y184.474 E-0.16534
G1 X177.241 Y184.695 E-0.14429
G1 X177.789 Y184.996 E-0.14429
G1 X178.288 Y185.372 E-0.14429
G1 X178.729 Y185.815 E-0.14429
G1 X179.102 Y186.316 E-0.14429
G1 X179.400 Y186.865 E-0.14429
G1 X179.616 Y187.451 E-0.14429
G1 X179.747 Y188.062 E-0.14429
G1 X179.750 Y188.107 E-0.01032
;WIPE_END
G1 E-0.07000 F2100.000
G1 Z0.400 F10800.000
G1 X184.237 Y193.429
G1 Z0.200
G1 E1.40000 F2100.000
;TYPE:Perimeter
G1 F1200.000
G1 X184.658 Y193.136 E0.01608
G1 X185.123 Y192.921 E0.01608
G1 X185.619 Y192.790 E0.01608
G1 X186.085 Y192.750 E0.01465
G1 X186.637 Y192.791 E0.01736
G1 X187.136 Y192.927 E0.01623
G1 X187.600 Y193.145 E0.01608
G1 X188.020 Y193.440 E0.01608
G1 X188.381 Y193.804 E0.01608
G1 X188.674 Y194.225 E0.01608
G1 X188.890 Y194.691 E0.01608
G1 X189.021 Y195.186 E0.01608
G1 X189.065 Y195.698 E0.01608
G1 X189.018 Y196.208 E0.01608
G1 X188.884 Y196.704 E0.01608
G1 X188.666 Y197.168 E0.01608
G1 X188.371 Y197.587 E0.01608
G1 X188.007 Y197.949 E0.01608
G1 X187.586 Y198.242 E0.01608
G1 X187.120 Y198.457 E0.01608
G1 X186.624 Y198.589 E0.01608
G1 X186.113 Y198.632 E0.01608
G1 X185.602 Y198.586 E0.01608
G1 X185.107 Y198.451 E0.01608
G1 X184.643 Y198.233 E0.01608
G1 X184.224 Y197.938 E0.01608
G1 X183.862 Y197.574 E0.01608
G1 X183.569 Y197.153 E0.01608
G1 X183.354 Y196.688 E0.01608
G1 X183.222 Y196.192 E0.01608
G1 X183.179 Y195.681 E0.01608
G1 X183.225 Y195.170 E0.01608
G1 X183.359 Y194.675 E0.01608
G1 X183.578 Y194.210 E0.01608
G1 X183.873 Y193.791 E0.01608
G1 X184.194 Y193.472 E0.01420
G1 X184.460 Y193.739 F10800.000
;TYPE:External perimeter
G1 F1200.000
G1 X184.846 Y193.465 E0.01485
G1 X185.252 Y193.277 E0.01401
G1 X185.684 Y193.163 E0.01401
G1 X186.087 Y193.129 E0.01267
G1 X186.573 Y193.165 E0.01529
G1 X187.006 Y193.282 E0.01407
G1 X187.410 Y193.472 E0.01401
G1 X187.776 Y193.730 E0.01401
G1 X188.091 Y194.047 E0.01401
G1 X188.346 Y194.413 E0.01401
G1 X188.534 Y194.819 E0.01401
G1 X188.648 Y195.251 E0.01401
G1 X188.686 Y195.696 E0.01401
G1 X188.646 Y196.142 E0.01401
G1 X188.529 Y196.573 E0.01401
G1 X188.339 Y196.978 E0.01401
G1 X188.081 Y197.343 E0.01401
G1 X187.764 Y197.658 E0.01401
G1 X187.398 Y197.913 E0.01401
G1 X186.992 Y198.101 E0.01401
G1 X186.560 Y198.216 E0.01401
G1 X186.114 Y198.253 E0.01401
G1 X185.669 Y198.213 E0.01401
G1 X185.238 Y198.096 E0.01401
G1 X184.833 Y197.906 E0.01401
G1 X184.468 Y197.649 E0.01401
G1 X184.153 Y197.332 E0.01401
G1 X183.897 Y196.965 E0.01401
G1 X183.710 Y196.559 E0.01401
G1 X183.595 Y196.127 E0.01401
G1 X183.558 Y195.682 E0.01401
G1 X183.598 Y195.237 E0.01401
G1 X183.715 Y194.805 E0.01401
G1 X183.905 Y194.401 E0.01401
G1 X184.162 Y194.035 E0.01401
G1 X184.417 Y193.781 E0.01129
G1 X184.389 Y193.346 F10800.000
;WIPE_START
G1 F8640.000
G1 X184.846 Y193.465 E-0.12304
G1 X185.252 Y193.277 E-0.10321
G1 X185.684 Y193.163 E-0.10321
G1 X186.087 Y193.129 E-0.09332
G1 X186.573 Y193.165 E-0.11258
G1 X187.006 Y193.282 E-0.10359
G1 X187.410 Y193.472 E-0.10321
G1 X187.776 Y193.730 E-0.10321
G1 X188.091 Y194.047 E-0.10321
G1 X188.346 Y194.413 E-0.10321
G1 X188.534 Y194.819 E-0.10321
G1 X188.648 Y195.251 E-0.10321
G1 X188.675 Y195.561 E-0.07181
;WIPE_END
G1 E-0.07000 F2100.000
G1 Z0.400 F10800.000
G1 X195.940 Y191.012
G1 Z0.200
G1 E1.40000 F2100.000
;TYPE:Perimeter
G1 F1200.000
G1 X195.779 Y190.301 E0.02284
G1 X195.732 Y189.621 E0.02139
G1 X195.783 Y188.944 E0.02128
G1 X195.929 Y188.281 E0.02128
G1 X196.168 Y187.645 E0.02128
G1 X196.469 Y187.097 E0.01962
G1 X196.901 Y186.511 E0.02284
G1 X197.385 Y186.030 E0.02139
G1 X197.930 Y185.624 E0.02128
G1 X198.526 Y185.301 E0.02128
G1 X199.163 Y185.065 E0.02128
G1 X199.827 Y184.923 E0.02128
G1 X200.451 Y184.880 E0.01962
G1 X201.178 Y184.926 E0.02284
G1 X201.844 Y185.073 E0.02139
G1 X202.479 Y185.312 E0.02128
G1 X203.027 Y185.614 E0.01962
G1 X203.614 Y186.045 E0.02284
G1 X204.095 Y186.529 E0.02139
G1 X204.500 Y187.074 E0.02128
G1 X204.824 Y187.670 E0.02128
G1 X205.059 Y188.307 E0.02129
G1 X205.202 Y188.971 E0.02128
G1 X205.248 Y189.648 E0.02128
G1 X205.198 Y190.325 E0.02128
G1 X205.052 Y190.988 E0.02128
G1 X204.812 Y191.623 E0.02129
G1 X204.485 Y192.218 E0.02128
G1 X204.077 Y192.760 E0.02128
G1 X203.596 Y193.239 E0.02128
G1 X203.051 Y193.644 E0.02128
G1 X202.454 Y193.968 E0.02128
G1 X201.818 Y194.203 E0.02128
G1 X201.154 Y194.346 E0.02128
G1 X200.477 Y194.392 E0.02128
G1 X199.800 Y194.342 E0.02128
G1 X199.137 Y194.196 E0.02128
G1 X198.501 Y193.957 E0.02128
G1 X197.906 Y193.630 E0.02128
G1 X197.364 Y193.221 E0.02128
G1 X196.886 Y192.740 E0.02128
G1 X196.480 Y192.195 E0.02128
G1 X196.157 Y191.598 E0.02128
G1 X195.961 Y191.068 E0.01773
G1 X196.314 Y190.937 F10800.000
;TYPE:External perimeter
G1 F1200.000
G1 X196.153 Y190.246 E0.02224
G1 X196.110 Y189.622 E0.01963
G1 X196.157 Y188.999 E0.01959
G1 X196.291 Y188.388 E0.01959
G1 X196.512 Y187.804 E0.01959
G1 X196.788 Y187.301 E0.01799
G1 X197.188 Y186.758 E0.02115
G1 X197.632 Y186.316 E0.01963
G1 X198.133 Y185.943 E0.01959
G1 X198.682 Y185.645 E0.01959
G1 X199.268 Y185.429 E0.01959
G1 X199.879 Y185.297 E0.01959
G1 X200.452 Y185.258 E0.01799
G1 X201.125 Y185.301 E0.02115
G1 X201.736 Y185.436 E0.01963
G1 X202.321 Y185.656 E0.01959
G1 X202.824 Y185.932 E0.01799
G1 X203.367 Y186.332 E0.02115
G1 X203.809 Y186.776 E0.01963
G1 X204.182 Y187.277 E0.01959
G1 X204.479 Y187.826 E0.01959
G1 X204.696 Y188.413 E0.01959
G1 X204.827 Y189.024 E0.01959
G1 X204.870 Y189.647 E0.01959
G1 X204.824 Y190.270 E0.01959
G1 X204.689 Y190.880 E0.01959
G1 X204.469 Y191.465 E0.01959
G1 X204.168 Y192.013 E0.01959
G1 X203.792 Y192.512 E0.01959
G1 X203.349 Y192.953 E0.01959
G1 X202.848 Y193.326 E0.01959
G1 X202.298 Y193.624 E0.01959
G1 X201.712 Y193.840 E0.01959
G1 X201.101 Y193.971 E0.01959
G1 X200.478 Y194.014 E0.01959
G1 X199.854 Y193.968 E0.01959
G1 X199.244 Y193.833 E0.01959
G1 X198.659 Y193.613 E0.01959
G1 X198.112 Y193.312 E0.01959
G1 X197.613 Y192.936 E0.01959
G1 X197.172 Y192.493 E0.01959
G1 X196.799 Y191.992 E0.01959
G1 X196.501 Y191.442 E0.01959
G1 X196.335 Y190.993 E0.01501
G1 X195.925 Y190.847 F10800.000
;WIPE_START
G1 F8640.000
G1 X196.153 Y190.246 E-0.17752
G1 X196.110 Y189.622 E-0.14456
G1 X196.157 Y188.999 E-0.14429
G1 X196.291 Y188.388 E-0.14429
G1 X196.512 Y187.804 E-0.14429
G1 X196.788 Y187.301 E-0.13248
G1 X197.188 Y186.758 E-0.15572
G1 X197.632 Y186.316 E-0.14456
G1 X198.126 Y185.948 E-0.14228
;WIPE_END
G1 E-0.07000 F2100.000
G1 Z0.400 F10800.000
G1 X214.310 Y189.613
G1 Z0.200
G1 E1.40000 F2100.000
;TYPE:Perimeter
G1 F1200.000
G1 X214.335 Y188.840 E0.02424
G1 X214.466 Y188.026 E0.02586
G1 X214.656 Y187.338 E0.02237
G1 X214.948 Y186.625 E0.02416
G1 X215.322 Y185.951 E0.02416
G1 X215.773 Y185.327 E0.02416
G1 X216.294 Y184.760 E0.02416
G1 X216.879 Y184.258 E0.02416
G1 X217.520 Y183.830 E0.02416
G1 X218.206 Y183.480 E0.02416
G1 X218.929 Y183.213 E0.02416
G1 X219.679 Y183.035 E0.02416
G1 X220.444 Y182.946 E0.02416
G1 X221.215 Y182.948 E0.02416
G1 X221.980 Y183.041 E0.02416
G1 X222.728 Y183.224 E0.02416
G1 X223.450 Y183.495 E0.02416
G1 X224.134 Y183.849 E0.02416
G1 X224.772 Y184.281 E0.02416
G1 X225.354 Y184.786 E0.02416
