; generated by PrusaSlicer 2.3.0+win64 on 2021-04-10 at 10:59:42 UTC

; 

; external perimeters extrusion width = 0.45mm
; perimeters extrusion width = 0.45mm
; infill extrusion width = 0.45mm
; solid infill extrusion width = 0.45mm
; top infill extrusion width = 0.40mm
; first layer extrusion width = 0.42mm

M73 P0 R175
M73 Q0 S176
M201 X1000 Y1000 Z200 E5000 ; sets maximum accelerations, mm/sec^2
M203 X200 Y200 Z12 E120 ; sets maximum feedrates, mm/sec
M204 P1250 R1250 T1250 ; sets acceleration (P, T) and retract acceleration (R), mm/sec^2
M205 X8.00 Y8.00 Z0.40 E4.50 ; sets the jerk limits, mm/sec
M205 S0 T0 ; sets the minimum extruding and travel feed rate, mm/sec
M107
;TYPE:Custom
M862.3 P "MK3S" ; printer model check
M862.1 P0.4 ; nozzle diameter check
M115 U3.9.3 ; tell printer latest fw version
G90 ; use absolute coordinates
M83 ; extruder relative mode
M104 S230 ; set extruder temp
M140 S85 ; set bed temp
M190 S85 ; wait for bed temp
M109 S230 ; wait for extruder temp
G28 W ; home all without mesh bed level
G80 ; mesh bed leveling
G1 Y-3.0 F1000.0 ; go outside print area
G92 E0.0
G1 X60.0 E9.0 F1000.0 ; intro line
G1 X100.0 E12.5 F1000.0 ; intro line
G92 E0.0
M221 S95

; Don't change E values below. Excessive value can damage the printer.

M907 E538 ; set extruder motor current
G21 ; set units to millimeters
G90 ; use absolute coordinates
M83 ; use relative distances for extrusion
M900 K0.08 ; Filament gcode LA 1.5
M900 K45 ; Filament gcode LA 1.0
;LAYER_CHANGE
;Z:0.2
;HEIGHT:0.2
;BEFORE_LAYER_CHANGE
G92 E0.0
;0.2


G1 E-1.40000 F2100.000
G1 Z0.200 F10800.000
;AFTER_LAYER_CHANGE
;0.2
G1 Z0.400
G1 X32.585 Y73.720
G1 Z0.200
G1 E1.40000 F2100.000
M204 S1000
;TYPE:Skirt
;WIDTH:0.42
G1 F1200.000
G1 X34.302 Y73.057 E0.05772
G1 X35.906 Y72.582 E0.05247
G1 X37.630 Y72.221 E0.05521
G1 X39.373 Y72.004 E0.05509
G1 X41.135 Y71.931 E0.05528
G1 X148.223 Y72.060 E3.35767
G1 X167.299 Y72.308 E0.59818
G1 X168.197 Y72.393 E0.02827
G1 X169.140 Y72.650 E0.03065
G1 X169.965 Y73.034 E0.02852
G1 X170.962 Y73.763 E0.03873
G1 X171.728 Y74.615 E0.03595
G1 X172.237 Y75.477 E0.03138
G1 X172.588 Y76.439 E0.03210
G1 X172.771 Y77.711 E0.04030
G1 X172.362 Y109.686 E1.00264
G1 X169.847 Y153.237 E1.36778
G1 X169.556 Y156.818 E0.11263
G1 X168.836 Y160.662 E0.12262
G1 X167.810 Y164.127 E0.11333
G1 X166.396 Y167.569 E0.11667
G1 X164.563 Y170.961 E0.12087
G1 X162.537 Y173.943 E0.11305
G1 X160.184 Y176.746 E0.11476
G1 X157.363 Y179.468 E0.12289
G1 X154.523 Y181.695 E0.11317
G1 X151.369 Y183.684 E0.11691
G1 X148.035 Y185.336 E0.11667
G1 X144.649 Y186.602 E0.11332
M73 P0 R174
G1 X140.812 Y187.597 E0.12429
G1 X137.239 Y188.137 E0.11333
G1 X133.518 Y188.315 E0.11679
G1 X129.799 Y188.110 E0.11679
G1 X126.233 Y187.544 E0.11321
G1 X122.403 Y186.521 E0.12429
G1 X119.027 Y185.231 E0.11332
G1 X115.799 Y183.606 E0.11333
G1 X112.566 Y181.544 E0.12024
G1 X109.693 Y179.257 E0.11511
G1 X26.740 Y108.947 E3.40951
G1 X25.461 Y107.672 E0.05662
G1 X24.378 Y106.397 E0.05247
G1 X23.245 Y104.809 E0.06117
G1 X22.392 Y103.373 E0.05235
G1 X21.619 Y101.791 E0.05521
G1 X20.980 Y100.154 E0.05509
G1 X20.477 Y98.463 E0.05533
G1 X20.116 Y96.743 E0.05509
G1 X19.899 Y94.999 E0.05509
G1 X19.826 Y93.240 E0.05521
G1 X19.893 Y91.568 E0.05247
G1 X20.115 Y89.741 E0.05772
G1 X20.456 Y88.102 E0.05247
G1 X21.013 Y86.229 E0.06129
G1 X21.622 Y84.674 E0.05235
G1 X22.396 Y83.092 E0.05521
G1 X23.296 Y81.583 E0.05509
G1 X24.319 Y80.150 E0.05521
G1 X25.457 Y78.806 E0.05521
G1 X26.700 Y77.564 E0.05509
G1 X28.043 Y76.425 E0.05521
G1 X29.401 Y75.453 E0.05235
G1 X31.079 Y74.454 E0.06124
G1 X32.531 Y73.747 E0.05063
; printing object OH3A2A-36 - Drogue Deployment Catapult Upper Cap.STL id:0 copy 0
;WIPE_START
G1 F8640.000
G1 X34.302 Y73.057 E-0.43885
G1 X35.906 Y72.582 E-0.38638
G1 X37.630 Y72.221 E-0.40661
G1 X38.052 Y72.168 E-0.09816
;WIPE_END
G1 E-0.07000 F2100.000
G1 Z0.400 F10800.000
G1 X108.552 Y131.232
G1 Z0.200
G1 E1.40000 F2100.000
;TYPE:Perimeter
G1 F1200.000
G1 X108.657 Y131.093 E0.00546
G1 X110.950 Y128.635 E0.10540
G1 X113.483 Y126.425 E0.10540
G1 X116.230 Y124.487 E0.10540
G1 X119.161 Y122.843 E0.10540
G1 X122.246 Y121.508 E0.10540
G1 X125.462 Y120.494 E0.10572
G1 X127.090 Y120.116 E0.05240
G1 X128.735 Y119.823 E0.05240
G1 X132.090 Y119.488 E0.10572
G1 X135.452 Y119.501 E0.10540
G1 X138.794 Y119.859 E0.10540
G1 X142.082 Y120.558 E0.10540
G1 X145.280 Y121.593 E0.10540
G1 X148.355 Y122.950 E0.10540
G1 X151.275 Y124.616 E0.10540
G1 X154.007 Y126.574 E0.10540
G1 X156.524 Y128.803 E0.10540
G1 X158.798 Y131.278 E0.10540
G1 X160.806 Y133.974 E0.10540
G1 X162.526 Y136.862 E0.10540
G1 X163.940 Y139.912 E0.10540
G1 X165.032 Y143.091 E0.10540
G1 X165.792 Y146.365 E0.10540
G1 X166.212 Y149.700 E0.10540
G1 X166.286 Y153.061 E0.10540
G1 X166.014 Y156.412 E0.10540
G1 X165.400 Y159.716 E0.10540
G1 X164.448 Y162.940 E0.10540
M73 Q0 S175
G1 X163.170 Y166.050 E0.10540
G1 X161.580 Y169.011 E0.10540
G1 X159.693 Y171.793 E0.10540
G1 X157.530 Y174.366 E0.10540
G1 X155.114 Y176.704 E0.10540
G1 X152.471 Y178.780 E0.10540
G1 X149.628 Y180.574 E0.10540
G1 X146.615 Y182.065 E0.10540
G1 X143.566 Y183.202 E0.10204
G1 X140.211 Y184.084 E0.10877
G1 X136.888 Y184.589 E0.10537
G1 X133.531 Y184.750 E0.10540
G1 X130.174 Y184.564 E0.10540
G1 X126.855 Y184.035 E0.10540
G1 X123.607 Y183.167 E0.10540
G1 X120.466 Y181.969 E0.10540
G1 X117.465 Y180.455 E0.10540
G1 X114.635 Y178.641 E0.10540
G1 X112.007 Y176.545 E0.10540
G1 X109.609 Y174.190 E0.10540
G1 X107.465 Y171.601 E0.10540
G1 X105.598 Y168.805 E0.10540
G1 X104.030 Y165.832 E0.10540
G1 X102.775 Y162.714 E0.10540
G1 X101.847 Y159.483 E0.10540
G1 X101.257 Y156.173 E0.10540
G1 X101.009 Y152.821 E0.10540
G1 X101.108 Y149.461 E0.10540
G1 X101.552 Y146.129 E0.10540
G1 X102.336 Y142.860 E0.10540
G1 X103.452 Y139.689 E0.10540
G1 X104.889 Y136.650 E0.10540
G1 X106.630 Y133.775 E0.10540
G1 X108.516 Y131.280 E0.09806
G1 X108.368 Y130.850 F10800.000
;TYPE:External perimeter
G1 F1200.000
G1 X110.687 Y128.363 E0.10662
G1 X113.249 Y126.128 E0.10662
G1 X116.028 Y124.168 E0.10662
G1 X118.994 Y122.504 E0.10662
G1 X122.114 Y121.154 E0.10662
G1 X125.362 Y120.130 E0.10678
G1 X127.014 Y119.747 E0.05316
G1 X128.683 Y119.449 E0.05316
G1 X132.072 Y119.111 E0.10678
G1 X135.472 Y119.124 E0.10662
G1 X138.853 Y119.486 E0.10662
G1 X142.179 Y120.194 E0.10662
G1 X145.415 Y121.240 E0.10662
G1 X148.526 Y122.613 E0.10662
G1 X151.479 Y124.299 E0.10662
G1 X154.243 Y126.279 E0.10662
G1 X156.789 Y128.533 E0.10662
G1 X159.089 Y131.037 E0.10662
G1 X161.120 Y133.764 E0.10662
G1 X162.860 Y136.686 E0.10662
G1 X164.290 Y139.771 E0.10662
G1 X165.395 Y142.987 E0.10662
G1 X166.164 Y146.299 E0.10662
G1 X166.588 Y149.673 E0.10662
G1 X166.663 Y153.072 E0.10662
G1 X166.389 Y156.462 E0.10662
G1 X165.767 Y159.805 E0.10662
G1 X164.804 Y163.066 E0.10662
G1 X163.512 Y166.211 E0.10662
G1 X161.903 Y169.206 E0.10662
G1 X159.994 Y172.021 E0.10662
G1 X157.806 Y174.624 E0.10662
G1 X155.362 Y176.988 E0.10662
G1 X152.688 Y179.088 E0.10662
G1 X149.812 Y180.903 E0.10662
G1 X146.765 Y182.412 E0.10662
G1 X143.680 Y183.562 E0.10324
G1 X140.287 Y184.454 E0.10999
G1 X136.926 Y184.965 E0.10661
G1 X133.529 Y185.127 E0.10662
G1 X130.134 Y184.940 E0.10662
G1 X126.776 Y184.404 E0.10662
G1 X123.491 Y183.526 E0.10662
G1 X120.314 Y182.315 E0.10662
G1 X117.278 Y180.783 E0.10662
G1 X114.415 Y178.948 E0.10662
G1 X111.757 Y176.828 E0.10662
G1 X109.331 Y174.445 E0.10662
G1 X107.162 Y171.826 E0.10662
G1 X105.274 Y168.998 E0.10662
G1 X103.687 Y165.991 E0.10662
G1 X102.418 Y162.836 E0.10662
G1 X101.479 Y159.568 E0.10662
G1 X100.882 Y156.221 E0.10662
G1 X100.632 Y152.829 E0.10662
G1 X100.732 Y149.430 E0.10662
G1 X101.181 Y146.060 E0.10662
G1 X101.974 Y142.753 E0.10662
G1 X103.103 Y139.546 E0.10662
G1 X104.556 Y136.471 E0.10662
G1 X106.317 Y133.563 E0.10662
G1 X108.332 Y130.898 E0.10474
G1 X108.762 Y130.920 F10800.000
;WIPE_START
G1 F8640.000
G1 X110.687 Y128.363 E-0.79894
G1 X112.420 Y126.852 E-0.53106
;WIPE_END
G1 E-0.07000 F2100.000
G1 Z0.400 F10800.000
G1 X158.829 Y131.509
G1 Z0.200
G1 E1.40000 F2100.000
;TYPE:Solid infill
;WIDTH:0.421288
G1 F1200.000
G1 X156.320 Y129.000 E0.11164
G1 X153.831 Y126.796 E0.10460
G1 X152.949 Y126.164 E0.03411
G1 X159.561 Y132.776 E0.29418
G1 X160.571 Y134.131 E0.05317
G1 X160.849 Y134.599 E0.01711
G1 X151.083 Y124.832 E0.43453
G1 X149.836 Y124.121 E0.04517
G1 X161.637 Y135.921 E0.52506
G1 X162.276 Y136.994 E0.03929
G1 X162.363 Y137.183 E0.00654
G1 X148.589 Y123.409 E0.61284
G1 X148.228 Y123.203 E0.01308
G1 X147.547 Y122.902 E0.02340
G1 X162.825 Y138.180 E0.67976
G1 X163.288 Y139.178 E0.03459
G1 X146.590 Y122.480 E0.74295
G1 X145.632 Y122.057 E0.03294
G1 X163.721 Y140.146 E0.80487
G1 X164.002 Y140.962 E0.02713
G1 X144.762 Y121.722 E0.85603
G1 X143.971 Y121.466 E0.02615
G1 X164.282 Y141.777 E0.90369
G1 X164.562 Y142.593 E0.02713
G1 X143.180 Y121.211 E0.95134
G1 X142.390 Y120.955 E0.02615
G1 X164.808 Y143.373 E0.99745
G1 X164.969 Y144.070 E0.02251
G1 X141.656 Y120.757 E1.03727
G1 X140.977 Y120.612 E0.02186
G1 X165.131 Y144.767 E1.07471
G1 X165.293 Y145.464 E0.02251
G1 X140.297 Y120.468 E1.11215
G1 X139.617 Y120.323 E0.02186
G1 X165.455 Y146.161 E1.14959
G1 X165.514 Y146.415 E0.00822
G1 X165.563 Y146.804 E0.01232
G1 X138.937 Y120.178 E1.18464
G1 X138.749 Y120.138 E0.00605
G1 X138.316 Y120.092 E0.01372
G1 X165.640 Y147.416 E1.21572
G1 X165.716 Y148.028 E0.01941
G1 X137.717 Y120.028 E1.24580
G1 X137.117 Y119.964 E0.01896
G1 X165.793 Y148.640 E1.27589
M73 P0 R173
G1 X165.870 Y149.252 E0.01941
G1 X136.518 Y119.899 E1.30598
G1 X135.919 Y119.835 E0.01896
G1 X165.932 Y149.849 E1.33539
G1 X165.944 Y150.396 E0.01722
G1 X135.332 Y119.783 E1.36206
G1 X134.795 Y119.781 E0.01690
G1 X165.956 Y150.943 E1.38649
G1 X165.968 Y151.490 E0.01722
G1 X134.257 Y119.779 E1.41092
G1 X133.720 Y119.777 E0.01690
G1 X165.981 Y152.037 E1.43536
G1 X165.993 Y152.585 E0.01722
G1 X133.183 Y119.775 E1.45979
M73 Q0 S174
G1 X132.646 Y119.773 E0.01690
G1 X165.997 Y153.124 E1.48389
G1 X165.957 Y153.619 E0.01562
G1 X132.109 Y119.771 E1.50600
G1 X131.622 Y119.819 E0.01540
G1 X165.917 Y154.114 E1.52589
G1 X165.877 Y154.609 E0.01562
G1 X131.135 Y119.868 E1.54575
M73 P1 R173
M73 Q1 S174
G1 X130.649 Y119.916 E0.01539
G1 X165.837 Y155.104 E1.56561
G1 X165.796 Y155.599 E0.01562
G1 X130.162 Y119.965 E1.58548
G1 X129.676 Y120.013 E0.01539
G1 X165.756 Y156.094 E1.60534
G1 X165.697 Y156.570 E0.01509
G1 X129.189 Y120.062 E1.62436
G1 X128.707 Y120.115 E0.01525
G1 X165.613 Y157.021 E1.64207
G1 X165.529 Y157.472 E0.01444
G1 X128.253 Y120.196 E1.65854
G1 X127.799 Y120.277 E0.01451
G1 X165.445 Y157.923 E1.67501
G1 X165.361 Y158.375 E0.01444
G1 X127.345 Y120.358 E1.69148
G1 X126.902 Y120.450 E0.01423
G1 X165.278 Y158.826 E1.70745
G1 X165.194 Y159.277 E0.01444
G1 X126.468 Y120.551 E1.72304
G1 X126.033 Y120.652 E0.01403
G1 X165.103 Y159.721 E1.73833
G1 X164.981 Y160.135 E0.01355
G1 X125.599 Y120.753 E1.75223
G1 X125.188 Y120.877 E0.01350
G1 X164.859 Y160.548 E1.76508
M73 P1 R172
G1 X164.737 Y160.961 E0.01355
G1 X124.782 Y121.005 E1.77776
G1 X124.375 Y121.133 E0.01342
G1 X164.615 Y161.374 E1.79044
G1 X164.494 Y161.787 E0.01355
G1 X123.968 Y121.262 E1.80312
G1 X123.561 Y121.390 E0.01342
G1 X164.372 Y162.200 E1.81579
G1 X164.250 Y162.614 E0.01355
G1 X123.154 Y121.518 E1.82847
M73 Q1 S173
G1 X122.747 Y121.646 E0.01342
G1 X164.113 Y163.012 E1.84049
G1 X163.957 Y163.391 E0.01290
G1 X122.341 Y121.775 E1.85164
G1 X121.967 Y121.937 E0.01280
G1 X163.801 Y163.770 E1.86132
G1 X163.645 Y164.150 E0.01290
G1 X121.594 Y122.098 E1.87101
G1 X121.220 Y122.260 E0.01280
G1 X163.489 Y164.529 E1.88069
G1 X163.334 Y164.908 E0.01290
G1 X120.847 Y122.421 E1.89037
G1 X120.473 Y122.583 E0.01280
G1 X163.178 Y165.287 E1.90006
G1 X163.022 Y165.667 E0.01290
G1 X120.100 Y122.745 E1.90974
G1 X119.726 Y122.906 E0.01280
G1 X162.856 Y166.036 E1.91900
G1 X162.669 Y166.384 E0.01243
G1 X119.353 Y123.068 E1.92729
G1 X119.005 Y123.255 E0.01243
G1 X162.482 Y166.732 E1.93447
G1 X162.295 Y167.081 E0.01243
G1 X118.662 Y123.447 E1.94140
G1 X118.319 Y123.639 E0.01237
G1 X162.108 Y167.429 E1.94833
G1 X161.921 Y167.777 E0.01243
G1 X117.976 Y123.832 E1.95526
G1 X117.634 Y124.024 E0.01237
G1 X161.734 Y168.125 E1.96219
M73 P1 R171
G1 X161.548 Y168.473 E0.01243
G1 X117.291 Y124.216 E1.96912
G1 X116.948 Y124.409 E0.01237
G1 X161.361 Y168.821 E1.97605
G1 X161.148 Y169.144 E0.01215
G1 X116.605 Y124.601 E1.98184
M73 P2 R171
M73 Q2 S173
G1 X116.272 Y124.803 E0.01225
G1 X160.932 Y169.462 E1.98703
G1 X160.715 Y169.781 E0.01212
G1 X115.959 Y125.025 E1.99137
M73 Q2 S172
G1 X115.645 Y125.246 E0.01208
G1 X160.499 Y170.100 E1.99571
G1 X160.283 Y170.419 E0.01212
G1 X115.331 Y125.467 E2.00005
G1 X115.017 Y125.689 E0.01208
G1 X160.067 Y170.738 E2.00438
G1 X159.850 Y171.057 E0.01212
G1 X114.704 Y125.910 E2.00872
G1 X114.390 Y126.131 E0.01208
G1 X159.634 Y171.376 E2.01306
G1 X159.412 Y171.688 E0.01207
G1 X114.076 Y126.353 E2.01712
G1 X113.762 Y126.574 E0.01208
G1 X159.167 Y171.979 E2.02021
G1 X158.923 Y172.269 E0.01195
G1 X113.467 Y126.814 E2.02246
G1 X113.181 Y127.063 E0.01193
G1 X158.679 Y172.560 E2.02431
G1 X158.434 Y172.851 E0.01195
G1 X112.896 Y127.312 E2.02615
G1 X112.610 Y127.562 E0.01193
G1 X158.190 Y173.142 E2.02799
G1 X157.945 Y173.432 E0.01195
G1 X112.324 Y127.811 E2.02984
G1 X112.038 Y128.060 E0.01193
G1 X157.701 Y173.723 E2.03168
G1 X157.457 Y174.014 E0.01195
G1 X111.753 Y128.310 E2.03352
M73 P2 R170
G1 X111.467 Y128.559 E0.01193
G1 X157.200 Y174.292 E2.03481
G1 X156.928 Y174.555 E0.01191
G1 X111.181 Y128.808 E2.03542
G1 X111.146 Y128.838 E0.00144
G1 X110.919 Y129.082 E0.01047
G1 X156.656 Y174.818 E2.03496
G1 X156.384 Y175.081 E0.01191
G1 X110.661 Y129.359 E2.03435
M73 Q2 S171
G1 X110.403 Y129.636 E0.01191
G1 X156.112 Y175.345 E2.03373
G1 X155.840 Y175.608 E0.01191
G1 X110.145 Y129.913 E2.03312
G1 X109.887 Y130.189 E0.01191
G1 X155.568 Y175.871 E2.03251
G1 X155.296 Y176.134 E0.01191
G1 X109.628 Y130.466 E2.03189
G1 X109.370 Y130.743 E0.01191
G1 X155.024 Y176.397 E2.03128
G1 X154.734 Y176.642 E0.01195
G1 X109.112 Y131.020 E2.02987
G1 X108.856 Y131.299 E0.01192
G1 X154.434 Y176.878 E2.02793
G1 X154.135 Y177.113 E0.01199
G1 X108.626 Y131.604 E2.02485
G1 X108.395 Y131.909 E0.01202
G1 X153.835 Y177.348 E2.02176
G1 X153.535 Y177.584 E0.01199
G1 X108.165 Y132.213 E2.01868
G1 X107.934 Y132.518 E0.01202
G1 X153.236 Y177.819 E2.01560
G1 X152.936 Y178.055 E0.01199
G1 X107.704 Y132.823 E2.01251
M73 P3 R170
G1 X107.474 Y133.127 E0.01202
G1 X152.636 Y178.290 E2.00943
M73 Q3 S171
G1 X152.337 Y178.525 E0.01199
G1 X107.243 Y133.432 E2.00635
M73 P3 R169
G1 X107.013 Y133.737 E0.01202
G1 X152.011 Y178.735 E2.00213
G1 X151.683 Y178.942 E0.01221
G1 X106.793 Y134.052 E1.99733
G1 X106.591 Y134.385 E0.01226
G1 X151.355 Y179.149 E1.99171
G1 X151.027 Y179.356 E0.01221
G1 X106.389 Y134.718 E1.98609
G1 X106.187 Y135.051 E0.01226
G1 X150.699 Y179.563 E1.98047
M73 Q3 S170
G1 X150.371 Y179.770 E0.01221
G1 X105.985 Y135.385 E1.97485
G1 X105.784 Y135.718 E0.01226
G1 X150.043 Y179.977 E1.96923
G1 X149.715 Y180.184 E0.01221
G1 X105.582 Y136.051 E1.96361
G1 X105.380 Y136.385 E0.01226
G1 X149.377 Y180.382 E1.95758
G1 X149.019 Y180.559 E0.01256
G1 X105.178 Y136.718 E1.95064
G1 X105.000 Y137.075 E0.01256
G1 X148.662 Y180.736 E1.94262
G1 X148.304 Y180.914 E0.01256
G1 X104.829 Y137.439 E1.93434
G1 X104.657 Y137.802 E0.01264
G1 X147.946 Y181.091 E1.92606
G1 X147.588 Y181.268 E0.01256
G1 X104.485 Y138.165 E1.91777
G1 X104.314 Y138.529 E0.01264
G1 X147.230 Y181.445 E1.90949
G1 X146.872 Y181.623 E0.01256
G1 X104.142 Y138.892 E1.90121
G1 X103.970 Y139.256 E0.01264
G1 X146.514 Y181.800 E1.89293
G1 X146.126 Y181.946 E0.01307
G1 X103.798 Y139.619 E1.88327
G1 X103.643 Y139.999 E0.01291
G1 X145.736 Y182.091 E1.87283
M73 P3 R168
G1 X145.346 Y182.237 E0.01309
G1 X103.504 Y140.395 E1.86169
G1 X103.365 Y140.790 E0.01320
G1 X144.956 Y182.382 E1.85054
G1 X144.567 Y182.527 E0.01309
G1 X103.225 Y141.186 E1.83940
G1 X103.086 Y141.582 E0.01320
G1 X144.177 Y182.673 E1.82826
G1 X143.787 Y182.818 E0.01309
G1 X102.947 Y141.978 E1.81711
M73 Q3 S169
G1 X102.807 Y142.374 E0.01320
