; generated by PrusaSlicer 2.3.0+win64 on 2021-03-07 at 07:32:33 UTC

; 

; external perimeters extrusion width = 0.45mm
; perimeters extrusion width = 0.45mm
; infill extrusion width = 0.45mm
; solid infill extrusion width = 0.45mm
; top infill extrusion width = 0.40mm
; support material extrusion width = 0.35mm
; first layer extrusion width = 0.42mm

M73 P0 R111
M73 Q0 S112
M201 X1000 Y1000 Z200 E5000 ; sets maximum accelerations, mm/sec^2
M203 X200 Y200 Z12 E120 ; sets maximum feedrates, mm/sec
M204 P1250 R1250 T1250 ; sets acceleration (P, T) and retract acceleration (R), mm/sec^2
M205 X8.00 Y8.00 Z0.40 E4.50 ; sets the jerk limits, mm/sec
M205 S0 T0 ; sets the minimum extruding and travel feed rate, mm/sec
M107
;TYPE:Custom
M862.3 P "MK3S" ; printer model check
M862.1 P0.4 ; nozzle diameter check
M115 U3.9.3 ; tell printer latest fw version
G90 ; use absolute coordinates
M83 ; extruder relative mode
M104 S230 ; set extruder temp
M140 S85 ; set bed temp
M190 S85 ; wait for bed temp
M109 S230 ; wait for extruder temp
G28 W ; home all without mesh bed level
G80 ; mesh bed leveling
G1 Y-3.0 F1000.0 ; go outside print area
G92 E0.0
G1 X60.0 E9.0 F1000.0 ; intro line
G1 X100.0 E12.5 F1000.0 ; intro line
G92 E0.0
M221 S95

; Don't change E values below. Excessive value can damage the printer.
M907 E430 ; set extruder motor current
G21 ; set units to millimeters
G90 ; use absolute coordinates
M83 ; use relative distances for extrusion
M900 K0.08 ; Filament gcode LA 1.5
M900 K45 ; Filament gcode LA 1.0
;LAYER_CHANGE
;Z:0.2
;HEIGHT:0.2
;BEFORE_LAYER_CHANGE
G92 E0.0
;0.2


G1 E-1.40000 F2100.000
G1 Z0.200 F10800.000
;AFTER_LAYER_CHANGE
;0.2
G1 Z0.400
G1 X170.206 Y41.698
G1 Z0.200
G1 E1.40000 F2100.000
M204 S1000
;TYPE:Skirt
;WIDTH:0.42
G1 F1200.000
G1 X170.970 Y42.204 E0.02872
G1 X171.486 Y42.961 E0.02872
G1 X171.677 Y43.861 E0.02884
G1 X171.678 Y179.032 E4.23819
M73 Q0 S111
G1 X171.579 Y179.700 E0.02119
G1 X171.297 Y180.314 E0.02119
G1 X170.938 Y180.747 E0.01763
G1 X170.487 Y181.084 E0.01763
G1 X169.970 Y181.305 E0.01763
G1 X169.416 Y181.398 E0.01763
G1 X122.264 Y182.729 E1.47900
G1 X79.648 Y182.729 E1.33619
G1 X78.984 Y182.629 E0.02107
G1 X78.377 Y182.349 E0.02095
G1 X77.928 Y181.973 E0.01835
G1 X77.585 Y181.499 E0.01835
G1 X77.368 Y180.956 E0.01835
G1 X77.290 Y180.376 E0.01835
G1 X77.300 Y69.010 E3.49179
G1 X77.581 Y68.088 E0.03024
G1 X91.004 Y43.936 E0.86637
G1 X91.371 Y43.495 E0.01799
G1 X91.833 Y43.154 E0.01799
G1 X92.363 Y42.935 E0.01799
G1 X92.930 Y42.848 E0.01799
G1 X140.050 Y41.519 E1.47799
G1 X169.304 Y41.519 E0.91724
G1 X170.148 Y41.687 E0.02696
; printing object OH1A7A-11 - Spin Panel Lightplate.STL id:1 copy 0
;WIPE_START
G1 F8640.000
G1 X170.970 Y42.204 E-0.22439
G1 X171.486 Y42.961 E-0.21151
G1 X171.677 Y43.861 E-0.21237
G1 X171.677 Y46.813 E-0.68172
;WIPE_END
G1 E-0.07000 F2100.000
G1 Z0.400 F10800.000
G1 X140.553 Y124.686
G1 Z0.200
G1 E1.40000 F2100.000
;TYPE:Perimeter
G1 F1200.000
G1 X140.998 Y124.911 E0.01565
G1 X141.400 Y125.208 E0.01565
G1 X141.745 Y125.568 E0.01565
G1 X142.024 Y125.981 E0.01565
G1 X142.230 Y126.436 E0.01565
G1 X142.356 Y126.919 E0.01565
G1 X142.398 Y127.416 E0.01565
G1 X142.356 Y127.914 E0.01565
G1 X142.230 Y128.397 E0.01565
G1 X142.024 Y128.852 E0.01565
G1 X141.745 Y129.265 E0.01565
G1 X141.400 Y129.625 E0.01565
G1 X140.998 Y129.922 E0.01565
G1 X140.553 Y130.147 E0.01565
G1 X140.075 Y130.293 E0.01565
G1 X139.580 Y130.356 E0.01565
G1 X139.082 Y130.335 E0.01565
G1 X138.594 Y130.230 E0.01565
G1 X138.131 Y130.044 E0.01565
G1 X137.706 Y129.782 E0.01565
G1 X137.331 Y129.453 E0.01565
G1 X137.017 Y129.064 E0.01565
G1 X136.774 Y128.628 E0.01565
G1 X136.608 Y128.158 E0.01565
G1 X136.523 Y127.666 E0.01565
G1 X136.523 Y127.167 E0.01565
G1 X136.603 Y126.702 E0.01478
G1 X136.773 Y126.207 E0.01641
G1 X137.017 Y125.769 E0.01574
G1 X137.331 Y125.380 E0.01565
G1 X137.706 Y125.051 E0.01565
G1 X138.131 Y124.789 E0.01565
G1 X138.594 Y124.603 E0.01565
G1 X139.082 Y124.498 E0.01565
G1 X139.553 Y124.478 E0.01478
G1 X140.073 Y124.539 E0.01641
G1 X140.495 Y124.668 E0.01386
G1 X140.385 Y125.029 F10800.000
;TYPE:External perimeter
G1 F1200.000
G1 X140.800 Y125.233 E0.01450
G1 X141.150 Y125.492 E0.01364
G1 X141.450 Y125.806 E0.01364
G1 X141.694 Y126.166 E0.01364
G1 X141.873 Y126.562 E0.01364
G1 X141.983 Y126.983 E0.01364
G1 X142.020 Y127.416 E0.01364
G1 X141.983 Y127.850 E0.01364
G1 X141.873 Y128.271 E0.01364
G1 X141.694 Y128.667 E0.01364
G1 X141.450 Y129.027 E0.01364
G1 X141.150 Y129.341 E0.01364
G1 X140.800 Y129.600 E0.01364
G1 X140.412 Y129.796 E0.01364
G1 X139.996 Y129.923 E0.01364
G1 X139.564 Y129.978 E0.01364
G1 X139.130 Y129.960 E0.01364
G1 X138.705 Y129.868 E0.01364
G1 X138.301 Y129.706 E0.01364
G1 X137.931 Y129.478 E0.01364
G1 X137.604 Y129.191 E0.01364
G1 X137.331 Y128.852 E0.01364
G1 X137.119 Y128.473 E0.01364
G1 X136.974 Y128.063 E0.01364
G1 X136.901 Y127.634 E0.01364
G1 X136.901 Y127.199 E0.01364
G1 X136.970 Y126.796 E0.01283
G1 X137.118 Y126.361 E0.01440
G1 X137.331 Y125.981 E0.01367
G1 X137.604 Y125.642 E0.01364
G1 X137.931 Y125.355 E0.01364
G1 X138.301 Y125.127 E0.01364
G1 X138.705 Y124.965 E0.01364
G1 X139.130 Y124.873 E0.01364
G1 X139.539 Y124.856 E0.01283
G1 X139.995 Y124.910 E0.01440
G1 X140.327 Y125.011 E0.01091
G1 X140.697 Y124.779 F10800.000
;WIPE_START
G1 F8640.000
G1 X140.800 Y125.233 E-0.12048
G1 X141.150 Y125.492 E-0.10042
G1 X141.450 Y125.806 E-0.10042
G1 X141.694 Y126.166 E-0.10042
G1 X141.873 Y126.562 E-0.10042
G1 X141.983 Y126.983 E-0.10042
G1 X142.020 Y127.416 E-0.10042
G1 X141.983 Y127.850 E-0.10042
G1 X141.873 Y128.271 E-0.10042
G1 X141.694 Y128.667 E-0.10042
G1 X141.450 Y129.027 E-0.10042
G1 X141.150 Y129.341 E-0.10042
G1 X140.800 Y129.600 E-0.10042
G1 X140.783 Y129.609 E-0.00447
;WIPE_END
G1 E-0.07000 F2100.000
G1 Z0.400 F10800.000
G1 X139.841 Y140.113
G1 Z0.200
G1 E1.40000 F2100.000
;TYPE:Perimeter
G1 F1200.000
G1 X141.627 Y140.332 E0.05643
G1 X143.301 Y140.845 E0.05490
G1 X144.864 Y141.633 E0.05486
G1 X146.270 Y142.673 E0.05486
G1 X147.481 Y143.936 E0.05486
G1 X148.461 Y145.386 E0.05486
G1 X149.160 Y146.932 E0.05321
G1 X149.622 Y148.671 E0.05643
G1 X149.770 Y150.416 E0.05490
G1 X149.622 Y152.159 E0.05486
G1 X149.181 Y153.852 E0.05486
G1 X148.461 Y155.447 E0.05486
G1 X147.481 Y156.896 E0.05486
G1 X146.270 Y158.159 E0.05486
G1 X144.864 Y159.200 E0.05486
G1 X143.301 Y159.987 E0.05485
G1 X142.985 Y160.084 E0.01038
G1 X141.629 Y160.500 E0.04447
G1 X139.893 Y160.722 E0.05486
M73 P0 R110
G1 X138.145 Y160.648 E0.05486
G1 X136.435 Y160.279 E0.05486
G1 X134.812 Y159.627 E0.05486
G1 X133.367 Y158.737 E0.05321
G1 X132.009 Y157.555 E0.05643
G1 X130.909 Y156.192 E0.05490
G1 X130.056 Y154.665 E0.05486
G1 X129.473 Y153.015 E0.05486
G1 X129.178 Y151.291 E0.05486
G1 X129.178 Y149.541 E0.05486
G1 X129.473 Y147.817 E0.05486
G1 X130.056 Y146.167 E0.05486
G1 X130.909 Y144.640 E0.05486
G1 X132.009 Y143.279 E0.05486
G1 X133.322 Y142.123 E0.05486
G1 X134.812 Y141.206 E0.05486
G1 X136.435 Y140.553 E0.05486
G1 X138.145 Y140.185 E0.05486
G1 X139.781 Y140.115 E0.05133
G1 X139.797 Y140.492 F10800.000
;TYPE:External perimeter
G1 F1200.000
G1 X141.548 Y140.703 E0.05531
G1 X143.160 Y141.196 E0.05286
G1 X144.665 Y141.955 E0.05284
G1 X146.020 Y142.957 E0.05284
G1 X147.186 Y144.174 E0.05284
G1 X148.130 Y145.570 E0.05284
G1 X148.803 Y147.059 E0.05123
G1 X149.249 Y148.736 E0.05442
G1 X149.392 Y150.416 E0.05286
G1 X149.249 Y152.095 E0.05284
G1 X148.824 Y153.726 E0.05284
G1 X148.130 Y155.262 E0.05284
G1 X147.186 Y156.658 E0.05284
G1 X146.020 Y157.875 E0.05284
G1 X144.665 Y158.877 E0.05284
G1 X143.160 Y159.636 E0.05284
G1 X142.874 Y159.724 E0.00938
G1 X141.549 Y160.130 E0.04346
G1 X139.877 Y160.344 E0.05284
G1 X138.193 Y160.272 E0.05284
G1 X136.546 Y159.917 E0.05284
G1 X134.982 Y159.289 E0.05284
G1 X133.591 Y158.432 E0.05123
G1 X132.282 Y157.292 E0.05442
G1 X131.223 Y155.980 E0.05286
G1 X130.401 Y154.509 E0.05284
G1 X129.840 Y152.920 E0.05284
G1 X129.555 Y151.259 E0.05284
G1 X129.555 Y149.573 E0.05284
G1 X129.840 Y147.912 E0.05284
G1 X130.401 Y146.323 E0.05284
G1 X131.223 Y144.852 E0.05284
G1 X132.282 Y143.541 E0.05284
G1 X133.547 Y142.427 E0.05284
G1 X134.982 Y141.544 E0.05284
G1 X136.546 Y140.915 E0.05284
G1 X138.193 Y140.560 E0.05284
G1 X139.737 Y140.495 E0.04844
G1 X140.009 Y140.153 F10800.000
;WIPE_START
G1 F8640.000
G1 X141.548 Y140.703 E-0.42101
G1 X143.160 Y141.196 E-0.38927
G1 X144.665 Y141.955 E-0.38915
G1 X145.120 Y142.291 E-0.13057
;WIPE_END
G1 E-0.07000 F2100.000
G1 Z0.400 F10800.000
G1 X151.845 Y136.009
G1 Z0.200
G1 E1.40000 F2100.000
;TYPE:Perimeter
G1 F1200.000
G1 X164.531 Y136.009 E0.39778
G1 X164.531 Y155.999 E0.62675
G1 X151.845 Y155.999 E0.39778
G1 X151.845 Y136.069 E0.62487
G1 X152.222 Y136.386 F10800.000
;TYPE:External perimeter
G1 F1200.000
G1 X164.154 Y136.386 E0.37414
G1 X164.154 Y155.621 E0.60310
G1 X152.222 Y155.621 E0.37414
G1 X152.222 Y136.446 E0.60122
G1 X152.148 Y135.993 F10800.000
;WIPE_START
G1 F8640.000
G1 X157.982 Y136.418 E-1.33000
;WIPE_END
G1 E-0.07000 F2100.000
G1 Z0.400 F10800.000
G1 X157.814 Y168.168
G1 Z0.200
G1 E1.40000 F2100.000
;TYPE:Perimeter
G1 F1200.000
G1 X158.285 Y168.148 E0.01478
G1 X158.805 Y168.209 E0.01641
G1 X159.285 Y168.356 E0.01574
G1 X159.731 Y168.581 E0.01565
G1 X160.132 Y168.878 E0.01565
G1 X160.477 Y169.238 E0.01565
G1 X160.757 Y169.651 E0.01565
G1 X160.962 Y170.106 E0.01565
G1 X161.088 Y170.589 E0.01565
G1 X161.131 Y171.087 E0.01565
G1 X161.088 Y171.584 E0.01565
G1 X160.962 Y172.067 E0.01565
G1 X160.757 Y172.522 E0.01565
G1 X160.477 Y172.935 E0.01565
G1 X160.151 Y173.275 E0.01478
G1 X159.733 Y173.591 E0.01641
G1 X159.285 Y173.817 E0.01574
G1 X158.808 Y173.963 E0.01565
G1 X158.313 Y174.026 E0.01565
G1 X157.814 Y174.005 E0.01565
G1 X157.326 Y173.900 E0.01565
G1 X156.863 Y173.714 E0.01565
G1 X156.438 Y173.452 E0.01565
G1 X156.064 Y173.123 E0.01565
G1 X155.750 Y172.734 E0.01565
G1 X155.507 Y172.299 E0.01565
G1 X155.340 Y171.828 E0.01565
G1 X155.256 Y171.336 E0.01565
G1 X155.256 Y170.837 E0.01565
G1 X155.340 Y170.345 E0.01565
G1 X155.507 Y169.874 E0.01565
G1 X155.750 Y169.439 E0.01565
G1 X156.064 Y169.050 E0.01565
G1 X156.438 Y168.721 E0.01565
G1 X156.863 Y168.459 E0.01565
G1 X157.326 Y168.273 E0.01565
G1 X157.756 Y168.180 E0.01377
G1 X157.835 Y168.549 F10800.000
;TYPE:External perimeter
G1 F1200.000
G1 X158.271 Y168.526 E0.01369
G1 X158.727 Y168.580 E0.01440
G1 X159.144 Y168.707 E0.01367
G1 X159.532 Y168.903 E0.01364
G1 X159.882 Y169.162 E0.01364
G1 X160.183 Y169.476 E0.01364
G1 X160.426 Y169.836 E0.01364
G1 X160.606 Y170.232 E0.01364
G1 X160.715 Y170.653 E0.01364
G1 X160.752 Y171.087 E0.01364
G1 X160.715 Y171.520 E0.01364
G1 X160.606 Y171.941 E0.01364
G1 X160.426 Y172.337 E0.01364
G1 X160.183 Y172.697 E0.01364
G1 X159.900 Y172.993 E0.01283
G1 X159.533 Y173.269 E0.01440
G1 X159.144 Y173.466 E0.01367
G1 X158.728 Y173.593 E0.01364
G1 X158.297 Y173.648 E0.01364
G1 X157.862 Y173.630 E0.01364
G1 X157.437 Y173.538 E0.01364
G1 X157.034 Y173.376 E0.01364
G1 X156.663 Y173.148 E0.01364
G1 X156.337 Y172.861 E0.01364
G1 X156.064 Y172.522 E0.01364
G1 X155.851 Y172.143 E0.01364
G1 X155.707 Y171.733 E0.01364
G1 X155.633 Y171.304 E0.01364
G1 X155.633 Y170.869 E0.01364
G1 X155.707 Y170.440 E0.01364
G1 X155.851 Y170.030 E0.01364
G1 X156.064 Y169.651 E0.01364
G1 X156.337 Y169.312 E0.01364
G1 X156.663 Y169.025 E0.01364
G1 X157.034 Y168.797 E0.01364
G1 X157.437 Y168.635 E0.01364
G1 X157.776 Y168.562 E0.01088
G1 X157.986 Y168.179 F10800.000
;WIPE_START
G1 F8640.000
G1 X158.271 Y168.526 E-0.11454
G1 X158.727 Y168.580 E-0.10604
G1 X159.144 Y168.707 E-0.10066
G1 X159.532 Y168.903 E-0.10042
G1 X159.882 Y169.162 E-0.10042
G1 X160.183 Y169.476 E-0.10042
G1 X160.426 Y169.836 E-0.10042
G1 X160.606 Y170.232 E-0.10042
G1 X160.715 Y170.653 E-0.10042
G1 X160.752 Y171.087 E-0.10043
G1 X160.715 Y171.520 E-0.10042
G1 X160.606 Y171.941 E-0.10042
G1 X160.426 Y172.337 E-0.10042
G1 X160.415 Y172.353 E-0.00454
;WIPE_END
G1 E-0.07000 F2100.000
G1 Z0.400 F10800.000
G1 X142.230 Y172.461
G1 Z0.200
G1 E1.40000 F2100.000
;TYPE:Perimeter
G1 F1200.000
G1 X142.356 Y172.944 E0.01565
G1 X142.398 Y173.441 E0.01565
G1 X142.356 Y173.939 E0.01565
G1 X142.230 Y174.422 E0.01565
G1 X142.024 Y174.876 E0.01565
G1 X141.745 Y175.290 E0.01565
G1 X141.419 Y175.630 E0.01478
G1 X141.001 Y175.946 E0.01641
G1 X140.553 Y176.172 E0.01574
G1 X140.075 Y176.318 E0.01565
G1 X139.580 Y176.381 E0.01565
G1 X139.082 Y176.360 E0.01565
G1 X138.594 Y176.255 E0.01565
G1 X138.131 Y176.069 E0.01565
G1 X137.706 Y175.807 E0.01565
G1 X137.331 Y175.477 E0.01565
G1 X137.017 Y175.089 E0.01565
G1 X136.774 Y174.653 E0.01565
G1 X136.608 Y174.183 E0.01565
G1 X136.523 Y173.691 E0.01565
G1 X136.523 Y173.192 E0.01565
G1 X136.603 Y172.727 E0.01478
G1 X136.773 Y172.232 E0.01641
G1 X137.017 Y171.793 E0.01574
G1 X137.331 Y171.405 E0.01565
G1 X137.706 Y171.075 E0.01565
G1 X138.131 Y170.814 E0.01565
G1 X138.594 Y170.628 E0.01565
G1 X139.082 Y170.522 E0.01565
G1 X139.553 Y170.502 E0.01478
G1 X140.073 Y170.564 E0.01641
G1 X140.553 Y170.711 E0.01574
G1 X140.998 Y170.936 E0.01565
G1 X141.400 Y171.232 E0.01565
G1 X141.745 Y171.593 E0.01565
G1 X142.024 Y172.006 E0.01565
G1 X142.205 Y172.406 E0.01377
G1 X141.862 Y172.562 F10800.000
;TYPE:External perimeter
G1 F1200.000
G1 X141.983 Y173.008 E0.01450
G1 X142.020 Y173.441 E0.01364
G1 X141.983 Y173.875 E0.01364
G1 X141.873 Y174.295 E0.01364
G1 X141.694 Y174.692 E0.01364
G1 X141.450 Y175.052 E0.01364
G1 X141.167 Y175.348 E0.01283
G1 X140.801 Y175.624 E0.01440
G1 X140.412 Y175.820 E0.01367
G1 X139.996 Y175.948 E0.01364
G1 X139.564 Y176.003 E0.01364
G1 X139.130 Y175.985 E0.01364
G1 X138.705 Y175.893 E0.01364
G1 X138.301 Y175.731 E0.01364
G1 X137.931 Y175.503 E0.01364
G1 X137.604 Y175.215 E0.01364
G1 X137.331 Y174.877 E0.01364
G1 X137.119 Y174.497 E0.01364
G1 X136.974 Y174.087 E0.01364
G1 X136.901 Y173.659 E0.01364
G1 X136.901 Y173.224 E0.01364
G1 X136.970 Y172.821 E0.01283
G1 X137.118 Y172.386 E0.01440
G1 X137.331 Y172.005 E0.01367
G1 X137.604 Y171.667 E0.01364
G1 X137.931 Y171.380 E0.01364
G1 X138.301 Y171.152 E0.01364
G1 X138.705 Y170.990 E0.01364
G1 X139.130 Y170.898 E0.01364
G1 X139.539 Y170.881 E0.01283
G1 X139.995 Y170.934 E0.01440
G1 X140.411 Y171.062 E0.01367
G1 X140.800 Y171.258 E0.01364
G1 X141.150 Y171.516 E0.01364
G1 X141.450 Y171.830 E0.01364
G1 X141.694 Y172.191 E0.01364
G1 X141.837 Y172.507 E0.01088
G1 X142.255 Y172.632 F10800.000
;WIPE_START
G1 F8640.000
G1 X141.983 Y173.008 E-0.12048
G1 X142.020 Y173.441 E-0.10042
G1 X141.983 Y173.875 E-0.10042
G1 X141.873 Y174.295 E-0.10042
G1 X141.694 Y174.692 E-0.10042
G1 X141.450 Y175.052 E-0.10042
G1 X141.167 Y175.348 E-0.09448
G1 X140.801 Y175.624 E-0.10604
G1 X140.412 Y175.820 E-0.10066
G1 X139.996 Y175.948 E-0.10042
G1 X139.564 Y176.003 E-0.10042
G1 X139.130 Y175.985 E-0.10042
G1 X138.705 Y175.893 E-0.10042
G1 X138.686 Y175.886 E-0.00455
;WIPE_END
G1 E-0.07000 F2100.000
G1 Z0.400 F10800.000
G1 X146.718 Y108.737
G1 Z0.200
G1 E1.40000 F2100.000
;TYPE:Perimeter
G1 F1200.000
G1 X145.008 Y108.369 E0.05486
G1 X143.384 Y107.716 E0.05486
G1 X141.894 Y106.799 E0.05486
G1 X140.581 Y105.643 E0.05486
G1 X139.778 Y104.648 E0.04009
G1 X139.482 Y104.282 E0.01476
G1 X138.629 Y102.755 E0.05486
G1 X138.046 Y101.105 E0.05486
G1 X137.750 Y99.381 E0.05486
G1 X137.750 Y97.631 E0.05486
G1 X138.046 Y95.907 E0.05486
G1 X138.629 Y94.257 E0.05486
G1 X139.482 Y92.730 E0.05486
G1 X140.581 Y91.369 E0.05486
G1 X141.894 Y90.213 E0.05486
G1 X143.384 Y89.296 E0.05486
G1 X145.008 Y88.643 E0.05486
G1 X146.718 Y88.275 E0.05486
G1 X148.413 Y88.203 E0.05321
G1 X150.200 Y88.422 E0.05643
G1 X151.874 Y88.935 E0.05490
G1 X153.436 Y89.723 E0.05486
G1 X154.843 Y90.763 E0.05486
G1 X156.053 Y92.026 E0.05486
G1 X157.033 Y93.475 E0.05486
G1 X157.754 Y95.070 E0.05486
G1 X158.195 Y96.763 E0.05486
G1 X158.343 Y98.506 E0.05486
G1 X158.195 Y100.249 E0.05486
G1 X157.754 Y101.942 E0.05486
G1 X157.033 Y103.537 E0.05486
G1 X156.053 Y104.986 E0.05486
G1 X154.843 Y106.249 E0.05486
G1 X153.436 Y107.289 E0.05486
G1 X151.874 Y108.077 E0.05486
G1 X150.201 Y108.589 E0.05486
