; generated by PrusaSlicer 2.3.0+win64 on 2021-07-12 at 10:34:04 UTC

; 

; external perimeters extrusion width = 0.68mm
; perimeters extrusion width = 0.68mm
; infill extrusion width = 0.68mm
; solid infill extrusion width = 0.68mm
; top infill extrusion width = 0.60mm
; first layer extrusion width = 0.65mm

M73 P0 R142
M73 Q0 S144
M201 X1000 Y1000 Z200 E5000 ; sets maximum accelerations, mm/sec^2
M203 X200 Y200 Z12 E120 ; sets maximum feedrates, mm/sec
M204 P1250 R1250 T1250 ; sets acceleration (P, T) and retract acceleration (R), mm/sec^2
M205 X8.00 Y8.00 Z0.40 E4.50 ; sets the jerk limits, mm/sec
M205 S0 T0 ; sets the minimum extruding and travel feed rate, mm/sec
M107
;TYPE:Custom
M862.3 P "MK3S" ; printer model check
M862.1 P0.6 ; nozzle diameter check
M115 U3.10.0 ; tell printer latest fw version
G90 ; use absolute coordinates
M83 ; extruder relative mode
M104 S230 ; set extruder temp
M140 S85 ; set bed temp
M190 S85 ; wait for bed temp
M109 S230 ; wait for extruder temp
G28 W ; home all without mesh bed level
G80 ; mesh bed leveling
G1 Y-3.0 F1000.0 ; go outside print area
G92 E0.0
G1 X60.0 E9.0 F1000.0 ; intro line
G1 X100.0 E12.5 F1000.0 ; intro line
G92 E0.0
M221 S95
G21 ; set units to millimeters
G90 ; use absolute coordinates
M83 ; use relative distances for extrusion
M900 K0.04 ; Filament gcode LA 1.5
M900 K24 ; Filament gcode LA 1.0
;LAYER_CHANGE
;Z:0.2
;HEIGHT:0.2
;BEFORE_LAYER_CHANGE
G92 E0.0
;0.2


G1 E-1.00000 F2100.000
G1 Z0.200 F10800.000
;AFTER_LAYER_CHANGE
;0.2
G1 Z0.400
G1 X172.292 Y4.373
G1 Z0.200
G1 E1.00000 F2100.000
M204 S1000
;TYPE:Skirt
;WIDTH:0.65
G1 F1200.000
G1 X173.096 Y4.911 E0.04885
G1 X173.647 Y5.702 E0.04865
G1 X173.873 Y6.639 E0.04865
G1 X173.727 Y36.015 E1.48291
M73 Q0 S143
G1 X173.662 Y36.565 E0.02794
G1 X173.481 Y37.088 E0.02794
G1 X88.666 Y191.767 E8.90479
G1 X88.274 Y192.299 E0.03334
G1 X87.765 Y192.713 E0.03314
G1 X87.165 Y192.988 E0.03334
G1 X86.519 Y193.103 E0.03314
G1 X82.190 Y193.084 E0.21850
G1 X81.387 Y192.928 E0.04131
G1 X80.719 Y192.567 E0.03832
G1 X80.181 Y192.026 E0.03852
G1 X79.824 Y191.356 E0.03832
G1 X79.675 Y190.611 E0.03832
G1 X74.277 Y6.335 E9.30603
G1 X74.320 Y5.819 E0.02613
G1 X74.465 Y5.322 E0.02613
G1 X74.705 Y4.863 E0.02613
G1 X75.028 Y4.464 E0.02593
G1 X75.423 Y4.135 E0.02593
G1 X75.878 Y3.889 E0.02613
G1 X76.373 Y3.738 E0.02613
G1 X76.889 Y3.688 E0.02613
G1 X171.350 Y4.166 E4.76838
M73 P0 R141
G1 X172.204 Y4.354 E0.04411
; printing object G-H Right Inboard Spacer.STL id:0 copy 0
;WIPE_START
G1 F8640.000
G1 X173.096 Y4.911 E-0.24291
G1 X173.647 Y5.702 E-0.22253
G1 X173.873 Y6.639 E-0.22254
G1 X173.867 Y7.773 E-0.26202
;WIPE_END
G1 E-0.05000 F2100.000
G1 Z0.400 F10800.000
G1 X98.459 Y34.171
G1 Z0.200
G1 E1.00000 F2100.000
;TYPE:External perimeter
G1 F1200.000
G1 X98.241 Y34.367 E0.01477
G1 X97.421 Y34.871 E0.04859
G1 X96.970 Y35.075 E0.02499
G1 X96.483 Y35.201 E0.02539
G1 X95.981 Y35.242 E0.02540
G1 X95.480 Y35.196 E0.02541
G1 X94.994 Y35.065 E0.02538
G1 X94.542 Y34.855 E0.02518
G1 X94.173 Y34.608 E0.02238
G1 X93.952 Y34.509 E0.01224
G1 X93.728 Y34.346 E0.01397
G1 X93.511 Y34.142 E0.01505
G1 X93.339 Y33.917 E0.01429
G1 X93.199 Y33.675 E0.01411
G1 X93.089 Y33.420 E0.01405
G1 X92.949 Y32.906 E0.02688
G1 X92.906 Y32.369 E0.02718
G1 X92.955 Y31.847 E0.02650
G1 X93.021 Y31.567 E0.01452
G1 X93.202 Y31.086 E0.02592
G1 X93.478 Y30.622 E0.02726
G1 X93.651 Y30.401 E0.01417
G1 X94.027 Y30.036 E0.02647
G1 X94.471 Y29.734 E0.02708
G1 X94.960 Y29.512 E0.02713
G1 X95.481 Y29.377 E0.02716
G1 X96.017 Y29.334 E0.02713
G1 X96.552 Y29.383 E0.02712
G1 X97.071 Y29.522 E0.02715
G1 X97.558 Y29.750 E0.02713
G1 X97.988 Y30.050 E0.02646
G1 X98.195 Y30.238 E0.01410
G1 X98.536 Y30.642 E0.02671
G1 X98.810 Y31.115 E0.02762
G1 X98.986 Y31.598 E0.02594
G1 X99.048 Y31.879 E0.01451
G1 X99.091 Y32.405 E0.02663
G1 X99.041 Y32.936 E0.02695
G1 X98.897 Y33.446 E0.02673
G1 X98.780 Y33.709 E0.01453
G1 X98.640 Y33.942 E0.01374
G1 X98.514 Y34.101 E0.01020
G1 X98.541 Y34.452 F10800.000
G1 X98.991 Y34.477
;TYPE:Perimeter
G1 F1200.000
G1 X99.140 Y34.288 E0.01217
G1 X99.319 Y33.990 E0.01755
G1 X99.469 Y33.653 E0.01861
G1 X99.640 Y33.048 E0.03172
G1 X99.701 Y32.409 E0.03243
G1 X99.649 Y31.788 E0.03143
G1 X99.570 Y31.429 E0.01858
G1 X99.363 Y30.858 E0.03065
G1 X99.035 Y30.291 E0.03306
G1 X98.633 Y29.815 E0.03145
G1 X98.368 Y29.574 E0.01808
G1 X97.863 Y29.222 E0.03109
G1 X97.280 Y28.950 E0.03247
G1 X96.659 Y28.783 E0.03246
G1 X96.020 Y28.725 E0.03238
G1 X95.380 Y28.776 E0.03240
G1 X94.757 Y28.937 E0.03247
G1 X94.172 Y29.203 E0.03245
G1 X93.642 Y29.564 E0.03238
G1 X93.199 Y29.994 E0.03116
G1 X92.976 Y30.278 E0.01821
G1 X92.653 Y30.822 E0.03196
G1 X92.439 Y31.390 E0.03060
G1 X92.355 Y31.748 E0.01859
G1 X92.296 Y32.365 E0.03130
G1 X92.349 Y33.011 E0.03271
G1 X92.514 Y33.621 E0.03191
G1 X92.656 Y33.949 E0.01803
G1 X92.833 Y34.255 E0.01787
G1 X93.002 Y34.475 E0.01398
G1 X92.291 Y34.449 E0.03589
G1 X80.798 Y34.390 E0.58015
G1 X79.744 Y34.404 E0.05326
G1 X79.143 Y34.475 E0.03052
G1 X78.671 Y34.579 E0.02443
G1 X78.770 Y33.870 E0.03614
G1 X78.799 Y33.288 E0.02941
G1 X78.791 Y32.751 E0.02710
G1 X78.050 Y7.429 E1.27880
G1 X170.131 Y7.898 E4.64824
G1 X170.117 Y10.714 E0.14217
G1 X145.104 Y10.587 E1.26266
G1 X144.995 Y31.901 E1.07592
G1 X170.008 Y32.028 E1.26266
G1 X169.994 Y34.844 E0.14215
G1 X99.763 Y34.487 E3.54522
G1 X99.017 Y34.505 E0.03766
;WIPE_START
G1 F8640.000
G1 X99.140 Y34.288 E-0.05753
G1 X99.319 Y33.990 E-0.08026
G1 X99.469 Y33.653 E-0.08511
G1 X99.640 Y33.048 E-0.14509
G1 X99.701 Y32.409 E-0.14836
G1 X99.649 Y31.788 E-0.14379
G1 X99.570 Y31.429 E-0.08501
G1 X99.363 Y30.858 E-0.14020
G1 X99.223 Y30.615 E-0.06465
;WIPE_END
G1 E-0.05000 F2100.000
G1 Z0.400 F10800.000
G1 X145.708 Y11.197
G1 Z0.200
G1 E1.00000 F2100.000
;TYPE:External perimeter
G1 F1200.000
G1 X145.605 Y31.297 E1.01463
G1 X170.619 Y31.424 E1.26266
G1 X170.598 Y35.454 E0.20344
G1 X99.764 Y35.094 E3.57568
G1 X99.254 Y35.098 E0.02575
G1 X98.731 Y35.131 E0.02644
G1 X97.743 Y35.283 E0.05045
G1 X94.294 Y35.266 E0.17414
G1 X93.826 Y35.213 E0.02376
G1 X93.323 Y35.112 E0.02588
G1 X92.796 Y35.067 E0.02673
G1 X92.283 Y35.056 E0.02586
G1 X80.801 Y34.997 E0.57963
G1 X79.783 Y35.011 E0.05139
G1 X79.249 Y35.074 E0.02717
G1 X78.768 Y35.187 E0.02490
G1 X78.055 Y35.183 E0.03599
G1 X78.044 Y34.786 E0.02006
G1 X78.084 Y34.315 E0.02386
G1 X78.165 Y33.807 E0.02598
G1 X78.192 Y33.278 E0.02674
G1 X78.184 Y32.765 E0.02589
G1 X77.424 Y6.819 E1.31030
G1 X170.742 Y7.294 E4.71060
G1 X170.721 Y11.324 E0.20346
G1 X145.798 Y11.197 E1.25812
G1 X145.108 Y11.226 F10800.000
;WIPE_START
G1 F8640.000
G1 X145.758 Y15.311 E-0.95000
;WIPE_END
G1 E-0.05000 F2100.000
G1 Z0.400 F10800.000
G1 X168.654 Y32.203
G1 Z0.200
G1 E1.00000 F2100.000
;TYPE:Solid infill
;WIDTH:0.653646
G1 F1200.000
G1 X169.548 Y33.097 E0.06415
G1 X169.543 Y33.956 E0.04364
G1 X168.061 Y32.474 E0.10646
G1 X167.193 Y32.469 E0.04409
G1 X169.108 Y34.384 E0.13754
G1 X168.240 Y34.380 E0.04408
G1 X166.325 Y32.465 E0.13754
G1 X165.457 Y32.460 E0.04409
G1 X167.372 Y34.375 E0.13754
G1 X166.504 Y34.371 E0.04409
G1 X164.589 Y32.456 E0.13754
G1 X163.720 Y32.451 E0.04409
G1 X165.636 Y34.367 E0.13754
G1 X164.767 Y34.362 E0.04408
G1 X162.852 Y32.447 E0.13754
G1 X161.984 Y32.443 E0.04409
G1 X163.899 Y34.358 E0.13755
G1 X163.031 Y34.353 E0.04409
G1 X161.116 Y32.438 E0.13755
G1 X160.248 Y32.434 E0.04409
M73 Q0 S142
G1 X162.163 Y34.349 E0.13755
G1 X161.295 Y34.345 E0.04409
G1 X159.380 Y32.429 E0.13755
G1 X158.512 Y32.425 E0.04409
G1 X160.427 Y34.340 E0.13755
G1 X159.559 Y34.336 E0.04409
G1 X157.644 Y32.420 E0.13755
G1 X156.775 Y32.416 E0.04409
G1 X158.691 Y34.331 E0.13755
G1 X157.823 Y34.327 E0.04409
G1 X155.907 Y32.412 E0.13755
G1 X155.039 Y32.407 E0.04409
G1 X156.954 Y34.323 E0.13755
G1 X156.086 Y34.318 E0.04409
G1 X154.171 Y32.403 E0.13755
G1 X153.303 Y32.398 E0.04409
G1 X155.218 Y34.314 E0.13755
G1 X154.350 Y34.309 E0.04409
G1 X152.435 Y32.394 E0.13755
G1 X151.567 Y32.390 E0.04409
G1 X153.482 Y34.305 E0.13755
G1 X152.614 Y34.300 E0.04409
G1 X150.699 Y32.385 E0.13755
G1 X149.831 Y32.381 E0.04409
G1 X151.746 Y34.296 E0.13755
G1 X150.878 Y34.292 E0.04409
G1 X148.962 Y32.376 E0.13755
G1 X148.094 Y32.372 E0.04409
G1 X150.010 Y34.287 E0.13755
G1 X149.141 Y34.283 E0.04409
G1 X147.226 Y32.367 E0.13755
G1 X146.358 Y32.363 E0.04409
G1 X148.273 Y34.278 E0.13755
G1 X147.405 Y34.274 E0.04409
G1 X145.215 Y32.084 E0.15727
;WIPE_START
G1 F8640.000
G1 X147.405 Y34.274 E-0.71511
G1 X148.273 Y34.278 E-0.20045
G1 X148.168 Y34.173 E-0.03444
;WIPE_END
G1 E-0.05000 F2100.000
G1 Z0.400 F10800.000
G1 X168.707 Y8.072
G1 Z0.200
G1 E1.00000 F2100.000
G1 F1200.000
G1 X169.670 Y9.036 E0.06917
G1 X169.666 Y9.895 E0.04364
G1 X168.114 Y8.343 E0.11148
G1 X167.246 Y8.338 E0.04409
G1 X169.161 Y10.254 E0.13758
G1 X168.293 Y10.249 E0.04409
G1 X166.377 Y8.334 E0.13758
G1 X165.509 Y8.329 E0.04409
G1 X167.425 Y10.245 E0.13758
G1 X166.557 Y10.241 E0.04409
G1 X164.641 Y8.325 E0.13758
G1 X163.773 Y8.321 E0.04409
G1 X165.689 Y10.236 E0.13758
G1 X164.821 Y10.232 E0.04409
G1 X162.905 Y8.316 E0.13758
G1 X162.037 Y8.312 E0.04409
G1 X163.952 Y10.227 E0.13758
G1 X163.084 Y10.223 E0.04409
G1 X161.169 Y8.307 E0.13758
G1 X160.301 Y8.303 E0.04409
G1 X162.216 Y10.219 E0.13758
G1 X161.348 Y10.214 E0.04409
G1 X159.432 Y8.298 E0.13758
G1 X158.564 Y8.294 E0.04409
G1 X160.480 Y10.210 E0.13758
G1 X159.612 Y10.205 E0.04409
G1 X157.696 Y8.290 E0.13758
G1 X156.828 Y8.285 E0.04409
G1 X158.744 Y10.201 E0.13758
G1 X157.876 Y10.196 E0.04409
G1 X155.960 Y8.281 E0.13758
G1 X155.092 Y8.276 E0.04409
G1 X157.008 Y10.192 E0.13758
G1 X156.139 Y10.188 E0.04409
G1 X154.224 Y8.272 E0.13758
G1 X153.356 Y8.268 E0.04409
G1 X155.271 Y10.183 E0.13758
G1 X154.403 Y10.179 E0.04409
G1 X152.488 Y8.263 E0.13758
G1 X151.619 Y8.259 E0.04409
G1 X153.535 Y10.174 E0.13758
G1 X152.667 Y10.170 E0.04409
G1 X150.751 Y8.254 E0.13758
G1 X149.883 Y8.250 E0.04409
G1 X151.799 Y10.166 E0.13758
G1 X150.931 Y10.161 E0.04409
G1 X149.015 Y8.245 E0.13758
G1 X148.147 Y8.241 E0.04409
G1 X150.063 Y10.157 E0.13758
G1 X149.195 Y10.152 E0.04409
G1 X147.279 Y8.237 E0.13758
G1 X146.411 Y8.232 E0.04409
G1 X148.326 Y10.148 E0.13758
G1 X147.458 Y10.143 E0.04409
G1 X145.543 Y8.228 E0.13758
G1 X144.674 Y8.223 E0.04409
G1 X146.590 Y10.139 E0.13758
G1 X145.722 Y10.135 E0.04409
G1 X143.806 Y8.219 E0.13758
G1 X142.938 Y8.215 E0.04409
G1 X144.854 Y10.130 E0.13758
G1 X144.651 Y10.129 E0.01032
G1 X144.647 Y10.787 E0.03342
G1 X142.070 Y8.210 E0.18509
G1 X141.202 Y8.206 E0.04409
G1 X144.643 Y11.647 E0.24712
G1 X144.639 Y12.506 E0.04364
G1 X140.334 Y8.201 E0.30915
G1 X139.466 Y8.197 E0.04409
G1 X144.634 Y13.365 E0.37118
G1 X144.630 Y14.225 E0.04364
G1 X138.598 Y8.192 E0.43321
G1 X137.730 Y8.188 E0.04409
G1 X144.625 Y15.084 E0.49524
G1 X144.621 Y15.943 E0.04364
G1 X136.861 Y8.184 E0.55727
G1 X135.993 Y8.179 E0.04409
G1 X144.617 Y16.803 E0.61930
G1 X144.612 Y17.662 E0.04364
G1 X135.125 Y8.175 E0.68133
G1 X134.257 Y8.170 E0.04409
G1 X144.608 Y18.521 E0.74337
G1 X144.604 Y19.381 E0.04364
G1 X133.389 Y8.166 E0.80540
G1 X132.521 Y8.161 E0.04409
G1 X144.599 Y20.240 E0.86743
G1 X144.595 Y21.099 E0.04364
G1 X131.653 Y8.157 E0.92946
G1 X130.785 Y8.153 E0.04409
G1 X144.590 Y21.958 E0.99149
M73 P1 R141
M73 Q1 S142
G1 X144.586 Y22.818 E0.04364
G1 X129.917 Y8.148 E1.05352
G1 X129.048 Y8.144 E0.04409
G1 X144.582 Y23.677 E1.11555
G1 X144.577 Y24.536 E0.04364
G1 X128.180 Y8.139 E1.17758
M73 P1 R140
G1 X127.312 Y8.135 E0.04409
G1 X144.573 Y25.396 E1.23961
G1 X144.569 Y26.255 E0.04364
G1 X126.444 Y8.131 E1.30164
G1 X125.576 Y8.126 E0.04409
G1 X144.564 Y27.114 E1.36367
G1 X144.560 Y27.974 E0.04364
G1 X124.708 Y8.122 E1.42571
G1 X123.840 Y8.117 E0.04409
G1 X144.555 Y28.833 E1.48774
G1 X144.551 Y29.692 E0.04364
G1 X122.972 Y8.113 E1.54977
G1 X122.103 Y8.108 E0.04409
G1 X144.547 Y30.552 E1.61180
G1 X144.542 Y31.411 E0.04364
G1 X121.235 Y8.104 E1.67383
G1 X120.367 Y8.100 E0.04409
G1 X146.537 Y34.270 E1.87944
G1 X145.669 Y34.265 E0.04409
G1 X119.499 Y8.095 E1.87944
G1 X118.631 Y8.091 E0.04409
G1 X144.801 Y34.261 E1.87944
G1 X143.933 Y34.256 E0.04409
G1 X117.763 Y8.086 E1.87944
G1 X116.895 Y8.082 E0.04409
G1 X143.065 Y34.252 E1.87944
G1 X142.197 Y34.247 E0.04409
G1 X116.027 Y8.078 E1.87944
G1 X115.159 Y8.073 E0.04409
G1 X141.329 Y34.243 E1.87944
G1 X140.460 Y34.239 E0.04409
G1 X114.290 Y8.069 E1.87944
G1 X113.422 Y8.064 E0.04409
G1 X139.592 Y34.234 E1.87944
G1 X138.724 Y34.230 E0.04409
G1 X112.554 Y8.060 E1.87944
G1 X111.686 Y8.055 E0.04409
G1 X137.856 Y34.225 E1.87944
G1 X136.988 Y34.221 E0.04409
G1 X110.818 Y8.051 E1.87944
G1 X109.950 Y8.047 E0.04409
G1 X136.120 Y34.217 E1.87944
G1 X135.252 Y34.212 E0.04409
G1 X109.082 Y8.042 E1.87944
M73 Q1 S141
G1 X108.214 Y8.038 E0.04409
G1 X134.384 Y34.208 E1.87944
G1 X133.516 Y34.203 E0.04409
G1 X107.346 Y8.033 E1.87944
G1 X106.477 Y8.029 E0.04409
G1 X132.647 Y34.199 E1.87944
G1 X131.779 Y34.195 E0.04409
G1 X105.609 Y8.024 E1.87944
G1 X104.741 Y8.020 E0.04409
G1 X130.911 Y34.190 E1.87944
G1 X130.043 Y34.186 E0.04409
G1 X103.873 Y8.016 E1.87944
G1 X103.005 Y8.011 E0.04409
G1 X129.175 Y34.181 E1.87944
G1 X128.307 Y34.177 E0.04409
G1 X102.137 Y8.007 E1.87945
G1 X101.269 Y8.002 E0.04409
G1 X127.439 Y34.172 E1.87945
G1 X126.571 Y34.168 E0.04409
G1 X100.401 Y7.998 E1.87945
G1 X99.532 Y7.994 E0.04409
G1 X125.703 Y34.164 E1.87945
M73 P1 R139
G1 X124.834 Y34.159 E0.04409
G1 X98.664 Y7.989 E1.87945
G1 X97.796 Y7.985 E0.04409
G1 X123.966 Y34.155 E1.87945
G1 X123.098 Y34.150 E0.04409
G1 X96.928 Y7.980 E1.87945
G1 X96.060 Y7.976 E0.04409
G1 X122.230 Y34.146 E1.87945
G1 X121.362 Y34.142 E0.04409
G1 X95.192 Y7.971 E1.87945
G1 X94.324 Y7.967 E0.04409
G1 X120.494 Y34.137 E1.87945
G1 X119.626 Y34.133 E0.04409
G1 X93.456 Y7.963 E1.87945
G1 X92.588 Y7.958 E0.04409
G1 X118.758 Y34.128 E1.87945
G1 X117.890 Y34.124 E0.04408
G1 X91.719 Y7.954 E1.87945
G1 X90.851 Y7.949 E0.04409
G1 X117.021 Y34.119 E1.87945
G1 X116.153 Y34.115 E0.04408
G1 X89.983 Y7.945 E1.87945
G1 X89.115 Y7.941 E0.04409
G1 X115.285 Y34.111 E1.87945
M73 P2 R139
G1 X114.417 Y34.106 E0.04409
G1 X88.247 Y7.936 E1.87945
M73 Q2 S141
G1 X87.379 Y7.932 E0.04409
G1 X113.549 Y34.102 E1.87945
G1 X112.681 Y34.097 E0.04408
G1 X86.511 Y7.927 E1.87945
G1 X85.643 Y7.923 E0.04409
G1 X111.813 Y34.093 E1.87945
G1 X110.945 Y34.089 E0.04409
G1 X84.774 Y7.918 E1.87945
G1 X83.906 Y7.914 E0.04409
G1 X110.077 Y34.084 E1.87945
G1 X109.208 Y34.080 E0.04408
G1 X83.038 Y7.910 E1.87945
G1 X82.170 Y7.905 E0.04409
G1 X108.340 Y34.075 E1.87945
G1 X107.472 Y34.071 E0.04409
G1 X81.302 Y7.901 E1.87945
M73 Q2 S140
G1 X80.434 Y7.896 E0.04409
G1 X106.604 Y34.067 E1.87945
G1 X105.736 Y34.062 E0.04408
G1 X79.566 Y7.892 E1.87945
G1 X78.698 Y7.888 E0.04409
G1 X104.868 Y34.058 E1.87946
G1 X104.000 Y34.053 E0.04409
G1 X78.539 Y8.593 E1.82849
G1 X78.565 Y9.483 E0.04520
G1 X103.132 Y34.049 E1.76427
G1 X102.264 Y34.044 E0.04408
G1 X100.115 Y31.896 E0.15428
G1 X100.158 Y32.412 E0.02627
G1 X100.124 Y32.768 E0.01820
G1 X101.395 Y34.040 E0.09133
G1 X100.527 Y34.036 E0.04409
G1 X99.765 Y33.274 E0.05471
;WIPE_START
G1 F8640.000
G1 X100.527 Y34.036 E-0.24878
G1 X101.395 Y34.040 E-0.20045
G1 X100.124 Y32.768 E-0.41525
G1 X100.158 Y32.412 E-0.08276
G1 X100.157 Y32.400 E-0.00276
;WIPE_END
G1 E-0.05000 F2100.000
G1 Z0.400 F10800.000
G1 X96.870 Y28.651
G1 Z0.200
G1 E1.00000 F2100.000
G1 F1200.000
G1 X78.591 Y10.372 E1.31273
G1 X78.617 Y11.262 E0.04520
G1 X95.653 Y28.298 E1.22344
G1 X95.305 Y28.326 E0.01775
G1 X94.917 Y28.425 E0.02031
G1 X78.643 Y12.152 E1.16873
G1 X78.669 Y13.042 E0.04520
G1 X94.281 Y28.653 E1.12117
G1 X93.948 Y28.804 E0.01858
G1 X93.722 Y28.958 E0.01386
G1 X78.696 Y13.931 E1.07918
G1 X78.722 Y14.821 E0.04520
G1 X93.230 Y29.329 E1.04195
G1 X92.801 Y29.764 E0.03101
G1 X78.748 Y15.711 E1.00927
G1 X78.774 Y16.601 E0.04520
G1 X92.448 Y30.275 E0.98206
G1 X92.241 Y30.624 E0.02062
M73 P2 R138
G1 X92.157 Y30.847 E0.01211
G1 X78.800 Y17.490 E0.95927
G1 X78.826 Y18.380 E0.04520
G1 X91.946 Y31.500 E0.94222
G1 X91.905 Y31.674 E0.00908
G1 X91.848 Y32.266 E0.03021
G1 X78.852 Y19.270 E0.93336
G1 X78.878 Y20.159 E0.04520
